;FLAVOR:UltiGCode
;TIME:4487
;MATERIAL:38466
;MATERIAL2:0
;NOZZLE_DIAMETER:0.6
;Generated with Cura_SteamEngine 3.4.1
M82 ;absolute extrusion mode

G92 E0
G10
;LAYER_COUNT:135
;LAYER:0
M107
M204 S5000
M205 X30 Y30
G0 F3600 X72.228 Y73.358 Z0.5
M204 S3000
M205 X20 Y20
;TYPE:SKIRT
G11
G1 F1500 E-0.25
G1 X73.839 Y71.757 E0.33984
G1 X73.933 Y71.67 E0.3731
G1 X76.438 Y69.448 E1.2427
G1 X76.548 Y69.356 E1.27994
G1 X79.118 Y67.352 E2.1263
G1 X79.253 Y67.254 E2.16962
G1 X82.85 Y64.852 E3.2929
G1 X82.962 Y64.782 E3.3272
G1 X84.94 Y63.622 E3.9227
G1 X85.075 Y63.549 E3.96256
G1 X88.932 Y61.625 E5.08193
G1 X89.077 Y61.559 E5.12331
G1 X92.08 Y60.316 E5.96735
G1 X92.186 Y60.275 E5.99687
G1 X94.375 Y59.495 E6.60036
G1 X94.522 Y59.449 E6.64036
G1 X98.679 Y58.28 E7.76181
G1 X98.834 Y58.242 E7.80326
G1 X102.052 Y57.578 E8.65658
G1 X102.163 Y57.558 E8.68587
G1 X104.419 Y57.208 E9.27876
G1 X104.572 Y57.189 E9.3188
G1 X108.863 Y56.82 E10.43729
G1 X108.994 Y56.813 E10.47135
G1 X111.277 Y56.749 E11.06448
G1 X111.43 Y56.75 E11.10422
G1 X115.748 Y56.922 E12.22649
G1 X115.879 Y56.931 E12.26059
G1 X118.143 Y57.153 E12.85137
G1 X118.294 Y57.173 E12.89093
G1 X122.527 Y57.878 E14.00538
G1 X122.687 Y57.91 E14.04776
G1 X125.947 Y58.697 E14.9187
G1 X126.053 Y58.726 E14.94724
G1 X128.184 Y59.352 E15.52405
G1 X128.331 Y59.4 E15.5642
G1 X132.394 Y60.901 E16.68907
G1 X132.516 Y60.951 E16.72331
G1 X134.625 Y61.873 E17.32107
G1 X134.763 Y61.938 E17.36068
G1 X138.565 Y63.915 E18.47357
G1 X138.68 Y63.98 E18.50788
G1 X140.639 Y65.148 E19.1002
G1 X140.767 Y65.23 E19.13967
G1 X144.312 Y67.68 E20.25878
G1 X144.418 Y67.758 E20.29296
G1 X146.239 Y69.18 E20.89298
G1 X146.357 Y69.279 E20.93298
G1 X149.547 Y72.139 E22.04563
G1 X149.642 Y72.228 E22.07944
G1 X151.243 Y73.839 E22.66928
G1 X151.33 Y73.933 E22.70254
G1 X153.552 Y76.438 E23.57214
G1 X153.644 Y76.548 E23.60938
G1 X155.648 Y79.118 E24.45574
G1 X155.746 Y79.253 E24.49906
G1 X158.148 Y82.85 E25.62233
G1 X158.218 Y82.962 E25.65663
G1 X159.378 Y84.94 E26.25214
G1 X159.451 Y85.075 E26.292
G1 X161.375 Y88.932 E27.41137
G1 X161.441 Y89.077 E27.45274
G1 X162.684 Y92.08 E28.29679
G1 X162.724 Y92.185 E28.32597
G1 X163.504 Y94.373 E28.92922
G1 X163.551 Y94.521 E28.96955
G1 X164.72 Y98.679 E30.09124
G1 X164.758 Y98.834 E30.13269
G1 X165.422 Y102.052 E30.98601
G1 X165.442 Y102.163 E31.0153
G1 X165.792 Y104.418 E31.60794
G1 X165.811 Y104.571 E31.64797
G1 X166.18 Y108.863 E32.76672
G1 X166.187 Y108.994 E32.80079
G1 X166.251 Y111.276 E33.39366
G1 X166.25 Y111.429 E33.43339
G1 X166.078 Y115.748 E34.55592
G1 X166.069 Y115.879 E34.59003
G1 X165.847 Y118.143 E35.18081
G1 X165.827 Y118.294 E35.22036
G1 X165.122 Y122.527 E36.33482
G1 X165.09 Y122.687 E36.37719
G1 X164.303 Y125.947 E37.24813
G1 X164.274 Y126.053 E37.27667
G1 X163.648 Y128.184 E37.85348
G1 X163.6 Y128.331 E37.89364
G1 X162.099 Y132.394 E39.0185
G1 X162.049 Y132.516 E39.05274
G1 X161.127 Y134.625 E39.6505
G1 X161.062 Y134.763 E39.69012
G1 X159.085 Y138.565 E40.80301
G1 X159.02 Y138.68 E40.83731
G1 X157.852 Y140.639 E41.42963
G1 X157.77 Y140.767 E41.46911
G1 X155.32 Y144.312 E42.58822
G1 X155.242 Y144.418 E42.62239
G1 X153.82 Y146.239 E43.22241
G1 X153.721 Y146.357 E43.26242
G1 X150.861 Y149.547 E44.37506
G1 X150.772 Y149.642 E44.40887
G1 X149.161 Y151.243 E44.99871
G1 X149.067 Y151.33 E45.03197
G1 X146.562 Y153.552 E45.90157
G1 X146.452 Y153.644 E45.93881
G1 X143.882 Y155.648 E46.78517
G1 X143.747 Y155.746 E46.82849
G1 X140.15 Y158.148 E47.95177
G1 X140.038 Y158.218 E47.98607
G1 X138.06 Y159.378 E48.58157
G1 X137.925 Y159.451 E48.62143
G1 X134.068 Y161.375 E49.7408
G1 X133.923 Y161.441 E49.78217
G1 X130.92 Y162.684 E50.62622
G1 X130.814 Y162.725 E50.65574
G1 X128.625 Y163.505 E51.25923
G1 X128.478 Y163.551 E51.29923
G1 X124.321 Y164.72 E52.42068
G1 X124.166 Y164.758 E52.46213
G1 X120.948 Y165.422 E53.31545
G1 X120.837 Y165.442 E53.34474
G1 X118.581 Y165.792 E53.93763
G1 X118.428 Y165.811 E53.97767
G1 X114.137 Y166.18 E55.09615
G1 X114.006 Y166.187 E55.13022
G1 X111.723 Y166.251 E55.72335
G1 X111.57 Y166.25 E55.76309
G1 X107.252 Y166.078 E56.88536
G1 X107.121 Y166.069 E56.91946
G1 X104.857 Y165.847 E57.51024
G1 X104.706 Y165.827 E57.5498
G1 X100.473 Y165.122 E58.66425
G1 X100.313 Y165.09 E58.70663
G1 X97.053 Y164.303 E59.57757
G1 X96.947 Y164.274 E59.60611
G1 X94.816 Y163.648 E60.18291
G1 X94.669 Y163.6 E60.22307
G1 X90.606 Y162.099 E61.34794
G1 X90.484 Y162.049 E61.38218
G1 X88.375 Y161.127 E61.97994
G1 X88.237 Y161.062 E62.01955
G1 X84.435 Y159.085 E63.13244
G1 X84.32 Y159.02 E63.16675
G1 X82.361 Y157.852 E63.75906
G1 X82.233 Y157.77 E63.79854
G1 X78.688 Y155.32 E64.91765
G1 X78.582 Y155.242 E64.95183
G1 X76.76 Y153.819 E65.55221
G1 X76.642 Y153.72 E65.59222
G1 X73.453 Y150.861 E66.7045
G1 X73.358 Y150.772 E66.7383
G1 X71.756 Y149.16 E67.32851
G1 X71.669 Y149.066 E67.36177
G1 X69.448 Y146.562 E68.23101
G1 X69.356 Y146.452 E68.26825
G1 X67.352 Y143.882 E69.1146
G1 X67.254 Y143.747 E69.15793
G1 X64.852 Y140.15 E70.2812
G1 X64.782 Y140.038 E70.3155
G1 X63.621 Y138.059 E70.91136
G1 X63.548 Y137.924 E70.95122
G1 X61.625 Y134.068 E72.07024
G1 X61.559 Y133.923 E72.11162
G1 X60.316 Y130.92 E72.95566
G1 X60.275 Y130.814 E72.98518
G1 X59.495 Y128.625 E73.58867
G1 X59.449 Y128.478 E73.62868
G1 X58.28 Y124.321 E74.75012
G1 X58.242 Y124.166 E74.79157
G1 X57.578 Y120.948 E75.64489
G1 X57.558 Y120.837 E75.67418
G1 X57.208 Y118.581 E76.26707
G1 X57.189 Y118.428 E76.30711
G1 X56.82 Y114.137 E77.4256
G1 X56.813 Y114.006 E77.45967
G1 X56.749 Y111.724 E78.05253
G1 X56.75 Y111.571 E78.09227
G1 X56.922 Y107.252 E79.2148
G1 X56.931 Y107.121 E79.2489
G1 X57.153 Y104.857 E79.83968
G1 X57.173 Y104.706 E79.87924
G1 X57.878 Y100.473 E80.99369
G1 X57.91 Y100.313 E81.03607
G1 X58.697 Y97.053 E81.90701
G1 X58.726 Y96.947 E81.93555
G1 X59.352 Y94.816 E82.51236
G1 X59.4 Y94.669 E82.55252
G1 X60.901 Y90.606 E83.67738
G1 X60.951 Y90.484 E83.71162
G1 X61.875 Y88.371 E84.31054
G1 X61.94 Y88.233 E84.35015
G1 X63.915 Y84.435 E85.46188
G1 X63.98 Y84.32 E85.49619
G1 X65.148 Y82.361 E86.08851
G1 X65.23 Y82.233 E86.12798
G1 X67.68 Y78.688 E87.24709
G1 X67.758 Y78.582 E87.28127
G1 X68.833 Y77.205 E87.73495
G0 F1350 X69.18 Y76.761
G0 X69.279 Y76.643
G0 X72.139 Y73.453
G0 X72.228 Y73.358
M204 S5000
M205 X30 Y30
G10
G1 F2400 Z1.5
G0 F3600 X118.047 Y163.323 Z1.5
M204 S3000
M205 X20 Y20
;TYPE:WALL-OUTER
G1 F2400 Z0.5
G11
G1 F1500 E88.81773
G1 X114.778 Y163.631 E89.67045
G1 X111.5 Y163.735 E90.52217
G1 X108.222 Y163.631 E91.3739
G1 X104.953 Y163.323 E92.22662
G1 X101.715 Y162.81 E93.07801
G1 X98.502 Y162.092 E93.93301
G1 X95.362 Y161.18 E94.78217
G1 X92.271 Y160.066 E95.63544
G1 X89.26 Y158.764 E96.48737
G1 X86.339 Y157.275 E97.33883
G1 X83.51 Y155.602 E98.19238
G1 X80.79 Y153.754 E99.04637
G1 X78.21 Y151.753 E99.8943
G1 X75.736 Y149.572 E100.75082
G1 X73.428 Y147.264 E101.59848
G1 X71.247 Y144.79 E102.45499
G1 X69.245 Y142.209 E103.30328
G1 X67.398 Y139.49 E104.15692
G1 X65.722 Y136.657 E105.01176
G1 X64.236 Y133.74 E105.86194
G1 X62.934 Y130.729 E106.71387
G1 X61.818 Y127.633 E107.56854
G1 X60.908 Y124.498 E108.4163
G1 X60.189 Y121.28 E109.27263
G1 X59.676 Y118.039 E110.12479
G1 X59.368 Y114.771 E110.97725
G1 X59.265 Y111.5 E111.82715
G1 X59.368 Y108.229 E112.67705
G1 X59.676 Y104.961 E113.52951
G1 X60.189 Y101.72 E114.38168
G1 X60.908 Y98.502 E115.238
G1 X61.818 Y95.367 E116.08576
G1 X62.936 Y92.264 E116.94232
G1 X64.236 Y89.26 E117.79238
G1 X65.722 Y86.343 E118.64256
G1 X67.398 Y83.51 E119.4974
G1 X69.246 Y80.79 E120.35139
G1 X71.247 Y78.21 E121.19932
G1 X73.428 Y75.736 E122.05583
G1 X75.736 Y73.428 E122.9035
G1 X78.21 Y71.247 E123.76001
G1 X80.79 Y69.246 E124.60794
G1 X83.51 Y67.398 E125.46193
G1 X86.339 Y65.725 E126.31548
G1 X89.26 Y64.236 E127.16694
G1 X92.271 Y62.934 E128.01887
G1 X95.362 Y61.82 E128.87215
G1 X98.502 Y60.908 E129.7213
G1 X101.715 Y60.19 E130.5763
G1 X104.953 Y59.677 E131.4277
G1 X108.222 Y59.369 E132.28042
G1 X111.5 Y59.265 E133.13214
G1 X114.778 Y59.369 E133.98387
G1 X118.047 Y59.677 E134.83658
G1 X121.285 Y60.19 E135.68798
G1 X124.498 Y60.908 E136.54298
G1 X127.638 Y61.82 E137.39214
G1 X130.729 Y62.934 E138.24541
G1 X133.74 Y64.236 E139.09734
G1 X136.661 Y65.725 E139.9488
G1 X139.49 Y67.398 E140.80235
G1 X142.21 Y69.246 E141.65634
G1 X144.79 Y71.247 E142.50427
G1 X147.264 Y73.428 E143.36078
G1 X149.572 Y75.736 E144.20845
G1 X151.753 Y78.21 E145.06496
G1 X153.754 Y80.79 E145.91289
G1 X155.602 Y83.51 E146.76688
G1 X157.278 Y86.343 E147.62172
G1 X158.764 Y89.26 E148.4719
G1 X160.064 Y92.264 E149.32196
G1 X161.182 Y95.367 E150.17852
G1 X162.092 Y98.502 E151.02628
G1 X162.811 Y101.72 E151.8826
G1 X163.324 Y104.961 E152.73477
G1 X163.632 Y108.229 E153.58723
G1 X163.735 Y111.5 E154.43713
G1 X163.632 Y114.771 E155.28703
G1 X163.324 Y118.039 E156.13949
G1 X162.811 Y121.28 E156.99166
G1 X162.092 Y124.498 E157.84798
G1 X161.182 Y127.633 E158.69574
G1 X160.066 Y130.729 E159.55041
G1 X158.764 Y133.74 E160.40235
G1 X157.278 Y136.657 E161.25252
G1 X155.602 Y139.49 E162.10736
G1 X153.755 Y142.209 E162.961
G1 X151.753 Y144.79 E163.80929
G1 X149.572 Y147.264 E164.6658
G1 X147.264 Y149.572 E165.51347
G1 X144.79 Y151.753 E166.36998
G1 X142.21 Y153.754 E167.21791
G1 X139.49 Y155.602 E168.0719
G1 X136.661 Y157.275 E168.92545
G1 X133.74 Y158.764 E169.77691
G1 X130.729 Y160.066 E170.62884
G1 X127.638 Y161.18 E171.48212
G1 X124.498 Y162.092 E172.33127
G1 X123.094 Y162.406 E172.7049
G0 F1350 X121.285 Y162.81
G0 X118.047 Y163.323
M204 S5000
M205 X30 Y30
G0 F3600 X117.55 Y163.369
G0 X117.497 Y162.789
G0 X117.494 Y162.742
G0 X107.673 Y111.741
G0 X107.732 Y110.784
G0 X108.03 Y109.869
G0 X108.446 Y109.212
G0 X109.033 Y108.486
G0 X109.419 Y108.983
M204 S3000
M205 X20 Y20
G1 F1500 E174.03768
G1 X109.265 Y109.12 E174.09121
G1 X109.12 Y109.265 E174.14446
G1 X108.983 Y109.419 E174.19799
G1 X108.858 Y109.581 E174.25113
G1 X108.743 Y109.751 E174.30443
G1 X108.639 Y109.927 E174.35752
G1 X108.546 Y110.11 E174.41083
G1 X108.465 Y110.298 E174.464
G1 X108.395 Y110.491 E174.51731
G1 X108.337 Y110.688 E174.57065
G1 X108.292 Y110.889 E174.62414
G1 X108.261 Y111.091 E174.67721
G1 X108.241 Y111.295 E174.73044
G1 X108.235 Y111.5 E174.7837
G1 X108.241 Y111.705 E174.83697
G1 X108.261 Y111.909 E174.8902
G1 X108.292 Y112.111 E174.94327
G1 X108.337 Y112.312 E174.99676
G1 X108.395 Y112.509 E175.0501
G1 X108.465 Y112.702 E175.10341
G1 X108.546 Y112.89 E175.15658
G1 X108.639 Y113.073 E175.20989
G1 X108.743 Y113.249 E175.26298
G1 X108.858 Y113.419 E175.31628
G1 X108.983 Y113.581 E175.36942
G1 X109.12 Y113.735 E175.42295
G1 X109.265 Y113.88 E175.4762
G1 X109.419 Y114.017 E175.52973
G1 X109.581 Y114.142 E175.58287
G1 X109.751 Y114.257 E175.63617
G1 X109.927 Y114.361 E175.68926
G1 X110.11 Y114.454 E175.74257
G1 X110.298 Y114.535 E175.79574
G1 X110.491 Y114.605 E175.84905
G1 X110.688 Y114.663 E175.90238
G1 X110.889 Y114.708 E175.95588
G1 X111.091 Y114.739 E176.00895
G1 X111.295 Y114.759 E176.06218
G1 X111.5 Y114.765 E176.11544
G1 X111.705 Y114.759 E176.16871
G1 X111.909 Y114.739 E176.22194
G1 X112.111 Y114.708 E176.27501
G1 X112.312 Y114.663 E176.3285
G1 X112.509 Y114.605 E176.38184
G1 X112.702 Y114.535 E176.43515
G1 X112.89 Y114.454 E176.48831
G1 X113.073 Y114.361 E176.54162
G1 X113.249 Y114.257 E176.59472
G1 X113.419 Y114.142 E176.64802
G1 X113.581 Y114.017 E176.70116
G1 X113.735 Y113.88 E176.75469
G1 X113.88 Y113.735 E176.80794
G1 X114.017 Y113.581 E176.86147
G1 X114.142 Y113.419 E176.91461
G1 X114.257 Y113.249 E176.96791
G1 X114.361 Y113.073 E177.021
G1 X114.454 Y112.89 E177.07431
G1 X114.535 Y112.702 E177.12747
G1 X114.605 Y112.509 E177.18079
G1 X114.663 Y112.312 E177.23412
G1 X114.708 Y112.111 E177.28762
G1 X114.739 Y111.909 E177.34069
G1 X114.759 Y111.705 E177.39392
G1 X114.765 Y111.5 E177.44718
G1 X114.759 Y111.295 E177.50044
G1 X114.739 Y111.091 E177.55368
G1 X114.708 Y110.889 E177.60675
G1 X114.663 Y110.688 E177.66024
G1 X114.605 Y110.491 E177.71357
G1 X114.535 Y110.298 E177.76689
G1 X114.454 Y110.11 E177.82005
G1 X114.361 Y109.927 E177.87336
G1 X114.257 Y109.751 E177.92645
G1 X114.142 Y109.581 E177.97976
G1 X114.026 Y109.43 E178.02921
G0 F1350 X114.017 Y109.419
G0 X113.88 Y109.265
G0 X113.735 Y109.12
G0 X113.581 Y108.983
G0 X113.419 Y108.858
G0 X113.249 Y108.743
G0 X113.073 Y108.639
G0 X112.89 Y108.546
G0 X112.702 Y108.465
G0 X112.509 Y108.395
G0 X112.312 Y108.337
G0 X112.111 Y108.292
G0 X111.909 Y108.261
G0 X111.705 Y108.241
G0 X111.5 Y108.235
G0 X111.295 Y108.241
G0 X111.091 Y108.261
G0 X110.889 Y108.292
G0 X110.688 Y108.337
G0 X110.491 Y108.395
G0 X110.298 Y108.465
G0 X110.11 Y108.546
G0 X109.927 Y108.639
G0 X109.751 Y108.743
G0 X109.581 Y108.858
G0 X109.419 Y108.983
M204 S5000
M205 X30 Y30
G0 F3600 X109.265 Y109.12
G0 X109.12 Y109.265
G0 X109.061 Y109.331
G0 X108.734 Y108.901
M204 S3000
M205 X20 Y20
;TYPE:WALL-INNER
G1 F1500 E179.36199
G1 X108.575 Y109.081 E179.42436
G1 X108.428 Y109.27 E179.48654
G1 X108.295 Y109.467 E179.54827
G1 X108.174 Y109.672 E179.61009
G1 X108.066 Y109.885 E179.67211
G1 X107.972 Y110.103 E179.73376
G1 X107.891 Y110.326 E179.79538
G1 X107.824 Y110.555 E179.85734
G1 X107.771 Y110.791 E179.92016
G1 X107.735 Y111.025 E179.98164
G1 X107.712 Y111.261 E180.04322
G1 X107.705 Y111.5 E180.10532
G1 X107.712 Y111.739 E180.16741
G1 X107.735 Y111.975 E180.22899
G1 X107.771 Y112.209 E180.29048
G1 X107.824 Y112.445 E180.35329
G1 X107.891 Y112.674 E180.41526
G1 X107.972 Y112.897 E180.47687
G1 X108.066 Y113.115 E180.53853
G1 X108.174 Y113.328 E180.60055
G1 X108.295 Y113.533 E180.66237
G1 X108.428 Y113.73 E180.7241
G1 X108.575 Y113.919 E180.78628
G1 X108.734 Y114.099 E180.84865
G1 X108.901 Y114.266 E180.90998
G1 X109.081 Y114.425 E180.97236
G1 X109.27 Y114.572 E181.03454
G1 X109.467 Y114.705 E181.09627
G1 X109.672 Y114.826 E181.15809
G1 X109.885 Y114.934 E181.22011
G1 X110.103 Y115.028 E181.28176
G1 X110.326 Y115.109 E181.34338
G1 X110.555 Y115.176 E181.40534
G1 X110.791 Y115.229 E181.46816
G1 X111.025 Y115.265 E181.52964
G1 X111.261 Y115.288 E181.59122
G1 X111.5 Y115.295 E181.65332
G1 X111.739 Y115.288 E181.71541
G1 X111.975 Y115.265 E181.77699
G1 X112.209 Y115.229 E181.83848
G1 X112.445 Y115.176 E181.90129
G1 X112.674 Y115.109 E181.96326
G1 X112.897 Y115.028 E182.02487
G1 X113.115 Y114.934 E182.08652
G1 X113.328 Y114.826 E182.14854
G1 X113.533 Y114.705 E182.21037
G1 X113.73 Y114.572 E182.27209
G1 X113.919 Y114.425 E182.33428
G1 X114.099 Y114.266 E182.39665
G1 X114.266 Y114.099 E182.45798
G1 X114.425 Y113.919 E182.52035
G1 X114.572 Y113.73 E182.58254
G1 X114.705 Y113.533 E182.64426
G1 X114.826 Y113.328 E182.70609
G1 X114.934 Y113.115 E182.76811
G1 X115.028 Y112.897 E182.82976
G1 X115.109 Y112.674 E182.89137
G1 X115.176 Y112.445 E182.95334
G1 X115.229 Y112.209 E183.01615
G1 X115.265 Y111.975 E183.07764
G1 X115.288 Y111.739 E183.13922
G1 X115.295 Y111.5 E183.20131
G1 X115.288 Y111.261 E183.26341
G1 X115.265 Y111.025 E183.32499
G1 X115.229 Y110.791 E183.38647
G1 X115.176 Y110.555 E183.44929
G1 X115.109 Y110.326 E183.51125
G1 X115.028 Y110.103 E183.57287
G1 X114.934 Y109.885 E183.63452
G1 X114.826 Y109.672 E183.69654
G1 X114.705 Y109.467 E183.75836
G1 X114.572 Y109.27 E183.82009
G1 X114.425 Y109.081 E183.88227
G1 X114.266 Y108.901 E183.94465
G1 X114.099 Y108.734 E184.00598
G1 X113.919 Y108.575 E184.06835
G1 X113.73 Y108.428 E184.13053
G1 X113.533 Y108.295 E184.19226
G1 X113.445 Y108.243 E184.21881
G0 F1350 X113.328 Y108.174
G0 X113.115 Y108.066
G0 X112.897 Y107.972
G0 X112.674 Y107.891
G0 X112.445 Y107.824
G0 X112.209 Y107.771
G0 X111.975 Y107.735
G0 X111.739 Y107.712
G0 X111.5 Y107.705
G0 X111.261 Y107.712
G0 X111.025 Y107.735
G0 X110.791 Y107.771
G0 X110.555 Y107.824
G0 X110.326 Y107.891
G0 X110.103 Y107.972
G0 X109.885 Y108.066
G0 X109.672 Y108.174
G0 X109.467 Y108.295
G0 X109.27 Y108.428
G0 X109.081 Y108.575
G0 X108.901 Y108.734
G0 X108.734 Y108.901
M204 S5000
M205 X30 Y30
G0 F3600 X108.348 Y108.538
M204 S3000
M205 X20 Y20
G1 F1500 E185.55159
G1 X108.167 Y108.743 E185.62261
G1 X107.999 Y108.959 E185.69367
G1 X107.847 Y109.184 E185.76419
G1 X107.709 Y109.417 E185.83452
G1 X107.586 Y109.66 E185.90525
