;FLAVOR:Marlin
;TIME:9474
;Filament used: 51.5262m
;Layer height: 0.6
;Generated with Cura_SteamEngine 4.0.0
M140 S84
M105
M190 S84
M104 S245
M105
M109 S245
M82 ;absolute extrusion mode
G28 ;Home
G1 Z15.0 F6000 ;Move the platform down 15mm
;Prime the extruder
G92 E0
G1 F200 E3
G92 E0
G92 E0
G1 F2400 E-9
;LAYER_COUNT:66
;LAYER:0
M107
G0 F9000 X113.373 Y89.369 Z0.5
;TYPE:SKIRT
G1 F2400 E0
G1 F1800 X113.695 Y89.059 E0.08734
G1 X114.067 Y88.812 E0.17459
G1 X114.477 Y88.635 E0.26186
G1 X114.912 Y88.533 E0.34916
G1 X115.259 Y88.509 E0.41713
G1 X284.741 Y88.51 E33.53447
G1 X285.186 Y88.55 E33.62178
G1 X285.617 Y88.668 E33.70909
G1 X286.02 Y88.862 E33.79649
G1 X286.382 Y89.124 E33.88381
G1 X286.691 Y89.446 E33.97101
G1 X286.938 Y89.818 E34.05827
G1 X287.116 Y90.228 E34.14561
G1 X287.217 Y90.663 E34.23287
G1 X287.241 Y91.012 E34.30123
G1 X287.2 Y138.068 E43.49613
G1 X287.16 Y138.513 E43.58343
G1 X287.041 Y138.944 E43.6708
G1 X286.9 Y139.254 E43.73735
G1 X284.241 Y144.176 E44.8305
G1 X281.901 Y149.164 E45.90709
G1 X279.832 Y154.31 E46.99087
G1 X278.928 Y156.873 E47.52193
G1 X277.314 Y162.142 E48.59873
G1 X275.993 Y167.523 E49.68141
G1 X275.445 Y170.245 E50.22397
G1 X274.992 Y172.895 E50.7493
G1 X274.286 Y178.399 E51.83361
G1 X273.895 Y183.899 E52.91104
G1 X273.816 Y189.413 E53.98861
G1 X274.048 Y194.924 E55.06643
G1 X274.591 Y200.41 E56.14365
G1 X275.448 Y205.886 E57.2267
G1 X275.975 Y208.517 E57.75102
G1 X277.43 Y214.981 E59.04571
G1 X277.459 Y215.134 E59.07614
G1 X278.218 Y219.863 E60.01203
G1 X278.24 Y220.039 E60.04669
G1 X278.754 Y225.869 E61.19031
G1 X278.763 Y226.016 E61.21908
G1 X278.873 Y229.768 E61.95255
G1 X278.872 Y229.936 E61.98538
G1 X278.649 Y235.79 E63.1301
G1 X278.639 Y235.936 E63.1587
G1 X278.279 Y239.653 E63.88841
G1 X278.258 Y239.818 E63.92091
G1 X277.316 Y245.542 E65.05445
G1 X277.283 Y245.708 E65.08752
G1 X276.184 Y250.38 E66.02536
G1 X276.15 Y250.509 E66.05143
G1 X275.09 Y254.137 E66.78999
G1 X275.036 Y254.299 E66.82336
G1 X273.015 Y259.797 E67.96797
G1 X272.961 Y259.931 E67.9962
G1 X271.472 Y263.353 E68.72543
G1 X271.401 Y263.504 E68.75803
G1 X268.722 Y268.686 E69.89792
G1 X268.65 Y268.815 E69.92679
G1 X266.717 Y272.068 E70.66619
G1 X266.627 Y272.21 E70.69904
G1 X263.313 Y277.019 E71.84026
G1 X263.226 Y277.137 E71.8689
G1 X260.906 Y280.114 E72.6064
G1 X260.799 Y280.242 E72.639
G1 X256.943 Y284.56 E73.77022
G1 X256.843 Y284.666 E73.79869
G1 X254.173 Y287.327 E74.53528
G1 X254.065 Y287.428 E74.56418
G1 X250.46 Y290.619 E75.50493
G1 X250.339 Y290.719 E75.5356
G1 X246.561 Y293.662 E76.47139
G1 X246.417 Y293.767 E76.50621
G1 X241.558 Y297.024 E77.64924
G1 X241.433 Y297.102 E77.67803
G1 X238.175 Y299.018 E78.41659
G1 X238.029 Y299.098 E78.44912
G1 X232.868 Y301.687 E79.57737
G1 X232.714 Y301.757 E79.61043
G1 X228.273 Y303.62 E80.55148
G1 X228.148 Y303.669 E80.57771
G1 X224.573 Y304.948 E81.31964
G1 X224.413 Y304.999 E81.35245
G1 X218.873 Y306.571 E82.47773
G1 X218.708 Y306.612 E82.51095
G1 X213.936 Y307.621 E83.46403
G1 X213.805 Y307.645 E83.49005
G1 X210.112 Y308.222 E84.22043
G1 X209.945 Y308.242 E84.2533
G1 X204.13 Y308.754 E85.39396
G1 X203.984 Y308.763 E85.42255
G1 X200.231 Y308.873 E86.15621
G1 X200.063 Y308.872 E86.18904
G1 X194.21 Y308.649 E87.33356
G1 X194.064 Y308.639 E87.36216
G1 X190.337 Y308.278 E88.09384
G1 X190.172 Y308.257 E88.12634
G1 X184.475 Y307.32 E89.25451
G1 X184.309 Y307.287 E89.28758
G1 X179.644 Y306.191 E90.22395
G1 X179.515 Y306.157 E90.25002
G1 X175.863 Y305.09 E90.99347
G1 X175.701 Y305.036 E91.02684
G1 X170.203 Y303.015 E92.17145
G1 X170.069 Y302.961 E92.19968
G1 X166.647 Y301.472 E92.92891
G1 X166.496 Y301.401 E92.96151
G1 X161.314 Y298.722 E94.1014
G1 X161.185 Y298.65 E94.13027
G1 X157.932 Y296.717 E94.86967
G1 X157.79 Y296.627 E94.90252
G1 X152.981 Y293.313 E96.04374
G1 X152.863 Y293.226 E96.07238
G1 X149.885 Y290.905 E96.81016
G1 X149.757 Y290.798 E96.84276
G1 X145.446 Y286.949 E97.97204
G1 X145.34 Y286.848 E98.00065
G1 X142.675 Y284.173 E98.73848
G1 X142.574 Y284.066 E98.76723
G1 X139.391 Y280.471 E99.70549
G1 X139.291 Y280.351 E99.73601
G1 X136.338 Y276.562 E100.67469
G1 X136.233 Y276.417 E100.70967
G1 X132.976 Y271.558 E101.85271
G1 X132.898 Y271.434 E101.88133
G1 X130.981 Y268.175 E102.62015
G1 X130.901 Y268.028 E102.65286
G1 X128.313 Y262.868 E103.78085
G1 X128.243 Y262.714 E103.8139
G1 X126.38 Y258.273 E104.75495
G1 X126.331 Y258.148 E104.78119
G1 X125.052 Y254.573 E105.52311
G1 X125.001 Y254.412 E105.55612
G1 X123.419 Y248.826 E106.69057
G1 X123.378 Y248.662 E106.7236
G1 X122.383 Y243.958 E107.66311
G1 X122.359 Y243.827 E107.68914
G1 X121.78 Y240.126 E108.42112
G1 X121.76 Y239.96 E108.45379
G1 X121.246 Y234.131 E109.59722
G1 X121.237 Y233.984 E109.626
G1 X121.127 Y230.232 E110.35947
G1 X121.128 Y230.064 E110.39229
G1 X121.351 Y224.21 E111.53701
G1 X121.361 Y224.064 E111.56561
G1 X121.721 Y220.347 E112.29532
G1 X121.742 Y220.182 E112.32782
G1 X122.684 Y214.458 E113.46136
G1 X122.707 Y214.338 E113.48523
G1 X124.653 Y205.304 E115.291
G1 X125.473 Y199.86 E116.36677
G1 X125.985 Y194.367 E117.44478
G1 X126.186 Y188.856 E118.52236
G1 X126.074 Y183.359 E119.59671
G1 X125.65 Y177.843 E120.67774
G1 X124.917 Y172.377 E121.75537
G1 X123.873 Y166.949 E122.83546
G1 X123.251 Y164.316 E123.36412
G1 X122.533 Y161.624 E123.90854
G1 X120.886 Y156.355 E124.98724
G1 X118.947 Y151.2 E126.06345
G1 X116.719 Y146.159 E127.1404
G1 X113.046 Y139.159 E128.68508
G1 X112.875 Y138.746 E128.77243
G1 X112.78 Y138.31 E128.85962
G1 X112.76 Y137.997 E128.92091
G1 X112.759 Y91.009 E138.10252
G1 X112.799 Y90.564 E138.18982
G1 X112.917 Y90.133 E138.27714
G1 X113.111 Y89.73 E138.36454
G1 X113.373 Y89.369 E138.4517
G0 F9000 X114.105 Y90.051
G1 F1800 X114.355 Y89.812 E138.51928
G1 X114.654 Y89.637 E138.58698
G1 X114.984 Y89.534 E138.65453
G1 X115.259 Y89.509 E138.70849
G1 X284.741 Y89.51 E171.82583
G1 X285.085 Y89.55 E171.8935
G1 X285.41 Y89.667 E171.961
G1 X285.7 Y89.856 E172.02863
G1 X285.938 Y90.106 E172.09608
G1 X286.113 Y90.405 E172.16378
G1 X286.216 Y90.735 E172.23133
G1 X286.241 Y91.011 E172.28548
G1 X286.2 Y138.067 E181.48038
G1 X286.16 Y138.411 E181.54805
G1 X286.02 Y138.779 E181.62499
G1 X283.349 Y143.723 E182.72304
G1 X280.988 Y148.756 E183.80933
G1 X278.892 Y153.968 E184.90704
G1 X277.977 Y156.563 E185.44471
G1 X276.351 Y161.874 E186.53005
G1 X275.017 Y167.302 E187.62226
G1 X274.46 Y170.071 E188.17417
G1 X274.001 Y172.764 E188.70798
G1 X273.289 Y178.307 E189.8
G1 X272.895 Y183.849 E190.88566
G1 X272.816 Y189.423 E191.97494
G1 X273.05 Y194.994 E193.0645
G1 X273.599 Y200.542 E194.15389
G1 X274.461 Y206.046 E195.2425
G1 X275.007 Y208.771 E195.78556
G1 X276.454 Y215.201 E197.07342
G1 X276.472 Y215.292 E197.09155
G1 X277.231 Y220.021 E198.02743
G1 X277.244 Y220.127 E198.0483
G1 X277.758 Y225.957 E199.19192
G1 X277.763 Y226.045 E199.20915
G1 X277.873 Y229.797 E199.94261
G1 X277.873 Y229.898 E199.96235
G1 X277.65 Y235.752 E201.10707
G1 X277.644 Y235.84 E201.12431
G1 X277.284 Y239.557 E201.85402
G1 X277.271 Y239.656 E201.87353
G1 X276.329 Y245.38 E203.00706
G1 X276.309 Y245.479 E203.0268
G1 X275.21 Y250.151 E203.96464
G1 X275.19 Y250.229 E203.98038
G1 X274.13 Y253.857 E204.71894
G1 X274.098 Y253.954 E204.7389
G1 X272.077 Y259.452 E205.88351
G1 X272.044 Y259.532 E205.90042
G1 X270.555 Y262.954 E206.62965
G1 X270.512 Y263.045 E206.64931
G1 X267.833 Y268.227 E207.7892
G1 X267.791 Y268.304 E207.80634
G1 X265.858 Y271.557 E208.54575
G1 X265.803 Y271.642 E208.56553
G1 X262.489 Y276.451 E209.70674
G1 X262.437 Y276.522 E209.72394
G1 X260.117 Y279.499 E210.46144
G1 X260.053 Y279.576 E210.481
G1 X256.197 Y283.894 E211.61222
G1 X256.137 Y283.957 E211.62922
G1 X253.467 Y286.618 E212.36581
G1 X253.402 Y286.679 E212.38322
G1 X249.797 Y289.87 E213.32398
G1 X249.725 Y289.93 E213.34229
G1 X245.947 Y292.873 E214.27808
G1 X245.86 Y292.936 E214.29907
G1 X241.001 Y296.193 E215.4421
G1 X240.926 Y296.24 E215.45939
G1 X237.668 Y298.156 E216.19795
G1 X237.581 Y298.204 E216.21736
G1 X232.42 Y300.793 E217.34562
G1 X232.327 Y300.835 E217.36556
G1 X227.886 Y302.698 E218.30661
G1 X227.811 Y302.727 E218.32232
G1 X224.236 Y304.006 E219.06425
G1 X224.14 Y304.037 E219.08396
G1 X218.6 Y305.609 E220.20923
G1 X218.501 Y305.634 E220.22918
G1 X213.729 Y306.643 E221.18226
G1 X213.651 Y306.657 E221.19775
G1 X209.958 Y307.234 E221.92813
G1 X209.858 Y307.246 E221.94781
G1 X204.043 Y307.758 E223.08847
G1 X203.955 Y307.763 E223.1057
G1 X200.202 Y307.873 E223.83936
G1 X200.101 Y307.873 E223.8591
G1 X194.248 Y307.65 E225.00362
G1 X194.16 Y307.644 E225.02086
G1 X190.433 Y307.283 E225.75253
G1 X190.335 Y307.27 E225.77185
G1 X184.638 Y306.333 E226.90002
G1 X184.538 Y306.313 E226.91995
G1 X179.873 Y305.217 E227.85632
G1 X179.795 Y305.197 E227.87206
G1 X176.143 Y304.13 E228.6155
G1 X176.046 Y304.098 E228.63546
G1 X170.548 Y302.077 E229.78007
G1 X170.468 Y302.044 E229.79698
G1 X167.046 Y300.555 E230.52621
G1 X166.955 Y300.512 E230.54588
G1 X161.773 Y297.833 E231.68577
G1 X161.696 Y297.791 E231.70291
G1 X158.443 Y295.858 E232.44231
G1 X158.358 Y295.803 E232.4621
G1 X153.549 Y292.489 E233.60331
G1 X153.478 Y292.437 E233.62051
G1 X150.5 Y290.116 E234.35828
G1 X150.423 Y290.052 E234.37785
G1 X146.112 Y286.203 E235.50713
G1 X146.048 Y286.143 E235.52427
G1 X143.383 Y283.468 E236.2621
G1 X143.323 Y283.403 E236.27939
G1 X140.14 Y279.808 E237.21764
G1 X140.08 Y279.736 E237.23595
G1 X137.127 Y275.947 E238.17464
G1 X137.064 Y275.86 E238.19563
G1 X133.807 Y271.001 E239.33866
G1 X133.76 Y270.927 E239.35579
G1 X131.843 Y267.668 E240.09461
G1 X131.795 Y267.579 E240.11437
G1 X129.207 Y262.419 E241.24236
G1 X129.165 Y262.327 E241.26212
G1 X127.302 Y257.886 E242.20317
G1 X127.273 Y257.811 E242.21888
G1 X125.994 Y254.236 E242.96081
G1 X125.963 Y254.14 E242.98052
G1 X124.381 Y248.554 E244.11498
G1 X124.356 Y248.455 E244.13493
G1 X123.361 Y243.751 E245.07444
G1 X123.347 Y243.673 E245.08993
G1 X122.768 Y239.972 E245.82191
G1 X122.756 Y239.872 E245.84159
G1 X122.242 Y234.043 E246.98502
G1 X122.237 Y233.955 E247.00224
G1 X122.127 Y230.203 E247.73571
G1 X122.127 Y230.102 E247.75545
G1 X122.35 Y224.248 E248.90017
G1 X122.356 Y224.16 E248.9174
G1 X122.716 Y220.443 E249.64711
G1 X122.729 Y220.344 E249.66663
G1 X123.671 Y214.62 E250.80016
G1 X123.685 Y214.548 E250.81449
G1 X125.637 Y205.486 E252.62585
G1 X126.464 Y199.995 E253.71091
G1 X126.983 Y194.426 E254.80383
G1 X127.185 Y188.872 E255.88981
G1 X127.072 Y183.299 E256.97902
G1 X126.645 Y177.739 E258.06866
G1 X125.904 Y172.214 E259.15793
G1 X124.852 Y166.745 E260.24618
G1 X124.213 Y164.04 E260.7893
G1 X123.501 Y161.371 E261.32907
G1 X121.828 Y156.021 E262.4244
G1 X119.869 Y150.812 E263.51185
G1 X117.621 Y145.724 E264.59878
G1 X113.932 Y138.694 E266.15011
G1 X113.807 Y138.371 E266.21779
G1 X113.76 Y137.997 E266.29144
G1 X113.759 Y91.009 E275.47305
G1 X113.799 Y90.666 E275.54053
G1 X113.916 Y90.34 E275.60821
G1 X114.105 Y90.051 E275.67569
G1 F2400 E266.67569
G1 F300 Z1.5
;MESH:balusterClamp2.stl
G0 F9000 X226.489 Y159.742 Z1.5
;TYPE:WALL-INNER
G1 F300 Z0.5
G1 F2400 E275.67569
G1 F1500 X225.949 Y159.548 E275.78781
G1 X223.212 Y158.561 E276.35634
G1 X219.556 Y157.5 E277.10021
G1 X180.45 Y157.5 E284.74165
G1 X176.789 Y158.561 E285.48646
G1 X174.052 Y159.548 E286.05499
G1 X173.511 Y159.742 E286.16729
G1 X173.395 Y159.179 E286.23715
G1 X173.047 Y157.5 E286.57221
G1 X159.75 Y157.5 E289.17049
G1 X159.75 Y136.5 E293.27395
G1 X116.75 Y136.5 E301.6763
G1 X116.75 Y118 E305.29126
G1 X117.75 Y118 E305.48666
G1 X117.75 Y135.5 E308.90622
G1 X159.75 Y135.5 E317.11316
G1 X159.75 Y118 E320.53271
G1 X240.25 Y118 E336.26268
G1 X240.25 Y135.5 E339.68224
G1 X282.25 Y135.5 E347.88918
G1 X282.25 Y118 E351.30873
G1 X283.25 Y118 E351.50414
G1 X283.25 Y136.5 E355.1191
G1 X240.25 Y136.5 E363.52144
G1 X240.25 Y157.5 E367.62491
G1 X226.953 Y157.5 E370.22319
G1 X226.605 Y159.179 E370.55824
G1 X226.604 Y159.18 E370.55852
G1 X226.489 Y159.742 E370.62821
G0 F9000 X227.283 Y161.091
;TYPE:WALL-OUTER
G1 F1500 X222.903 Y159.513 E371.53792
G1 X219.414 Y158.5 E372.24784
G1 X180.592 Y158.5 E379.83379
G1 X177.098 Y159.513 E380.54464
G1 X172.717 Y161.091 E381.45454
G1 X168.444 Y162.939 E382.36424
G1 X164.295 Y165.054 E383.27423
G1 X160.288 Y167.424 E384.18392
G1 X156.437 Y170.04 E385.09362
G1 X152.758 Y172.895 E386.00357
G1 X149.266 Y175.973 E386.91316
G1 X145.974 Y179.267 E387.82315
G1 X142.895 Y182.758 E388.73272
G1 X140.04 Y186.437 E389.64268
G1 X137.424 Y190.288 E390.55238
G1 X135.054 Y194.295 E391.46206
G1 X132.939 Y198.444 E392.37205
G1 X131.091 Y202.717 E393.28175
G1 X129.513 Y207.097 E394.19147
G1 X128.214 Y211.569 E395.10143
G1 X127.199 Y216.112 E396.01103
G1 X126.471 Y220.711 E396.92088
G1 X126.033 Y225.347 E397.83081
G1 X125.887 Y230 E398.74047
G1 X126.033 Y234.653 E399.65012
G1 X126.471 Y239.289 E400.56005
G1 X127.199 Y243.888 E401.4699
G1 X128.214 Y248.431 E402.3795
G1 X129.513 Y252.903 E403.28946
G1 X131.091 Y257.283 E404.19918
G1 X132.939 Y261.556 E405.10888
G1 X135.054 Y265.705 E406.01887
G1 X137.424 Y269.712 E406.92855
G1 X140.04 Y273.563 E407.83825
G1 X142.895 Y277.242 E408.74821
G1 X145.973 Y280.734 E409.6578
G1 X149.266 Y284.027 E410.56779
G1 X152.758 Y287.105 E411.47737
G1 X156.437 Y289.96 E412.38733
G1 X160.288 Y292.576 E413.29703
G1 X164.295 Y294.946 E414.20672
G1 X168.444 Y297.061 E415.11671
G1 X172.717 Y298.909 E416.02641
G1 X177.097 Y300.487 E416.93612
G1 X181.569 Y301.786 E417.84608
G1 X186.112 Y302.801 E418.75569
G1 X190.711 Y303.529 E419.66554
G1 X195.347 Y303.967 E420.57546
G1 X200 Y304.113 E421.48512
G1 X204.653 Y303.967 E422.39478
G1 X209.289 Y303.529 E423.3047
G1 X213.888 Y302.801 E424.21455
G1 X218.431 Y301.786 E425.12416
G1 X222.903 Y300.487 E426.03412
G1 X227.283 Y298.909 E426.94383
G1 X231.556 Y297.061 E427.85353
G1 X235.705 Y294.946 E428.76352
G1 X239.712 Y292.576 E429.67321
G1 X243.563 Y289.96 E430.58291
G1 X247.242 Y287.105 E431.49287
G1 X250.734 Y284.027 E432.40245
G1 X254.026 Y280.733 E433.31244
G1 X257.105 Y277.242 E434.22201
G1 X259.96 Y273.563 E435.13197
G1 X262.576 Y269.712 E436.04167
G1 X264.946 Y265.705 E436.95136
G1 X267.061 Y261.556 E437.86134
G1 X268.909 Y257.283 E438.77104
G1 X270.487 Y252.903 E439.68076
G1 X271.786 Y248.431 E440.59072
G1 X272.801 Y243.888 E441.50033
G1 X273.529 Y239.289 E442.41017
G1 X273.967 Y234.653 E443.3201
G1 X274.113 Y230 E444.22976
G1 X273.967 Y225.347 E445.13942
G1 X273.529 Y220.711 E446.04934
G1 X272.801 Y216.112 E446.95919
G1 X271.786 Y211.569 E447.86879
G1 X270.487 Y207.097 E448.77875
G1 X268.909 Y202.717 E449.68847
G1 X267.061 Y198.444 E450.59817
G1 X264.946 Y194.295 E451.50816
G1 X262.576 Y190.288 E452.41784
G1 X259.96 Y186.437 E453.32754
G1 X257.105 Y182.758 E454.2375
G1 X254.027 Y179.266 E455.14709
G1 X250.734 Y175.973 E456.05708
G1 X247.242 Y172.895 E456.96667
G1 X243.563 Y170.04 E457.87663
G1 X239.712 Y167.424 E458.78632
G1 X235.705 Y165.054 E459.69601
G1 X231.556 Y162.939 E460.606
G1 X227.283 Y161.091 E461.5157
G0 F9000 X226.813 Y160.922
G1 F2400 E452.5157
G1 F300 Z1.5
G0 F9000 X241.25 Y134.5 Z1.5
G1 F300 Z0.5
G1 F2400 E461.5157
G1 F1500 X281.25 Y134.5 E469.33183
G1 X281.25 Y117 E472.75139
G1 X284.25 Y117 E473.3376
G1 X284.25 Y137.5 E477.34336
G1 X241.25 Y137.5 E485.74571
G1 X241.25 Y158.5 E489.84917
G1 X228.217 Y158.5 E492.39587
G1 X227.767 Y158.5 E492.4838
G1 X227.602 Y159.297 E492.64284
G1 X228.014 Y159.475 E492.72248
G1 X232.308 Y161.336 E493.63696
G1 X236.565 Y163.505 E494.57054
G1 X240.656 Y165.924 E495.49922
G1 X244.613 Y168.613 E496.43407
G1 X248.365 Y171.523 E497.36189
G1 X251.942 Y174.677 E498.29375
G1 X255.323 Y178.058 E499.22807
G1 X258.477 Y181.635 E500.15993
G1 X261.384 Y185.383 E501.08677
G1 X264.076 Y189.344 E502.0226
G1 X266.495 Y193.435 E502.95128
G1 X268.664 Y197.691 E503.88469
G1 X270.563 Y202.08 E504.81915
G1 X272.171 Y206.547 E505.74685
G1 X273.5 Y211.124 E506.67815
G1 X274.541 Y215.778 E507.61003
G1 X275.287 Y220.487 E508.54166
G1 X275.736 Y225.234 E509.47338
G1 X275.886 Y230 E510.40513
G1 X275.736 Y234.766 E511.33688
G1 X275.287 Y239.513 E512.2686
G1 X274.541 Y244.222 E513.20023
G1 X273.5 Y248.876 E514.13211
G1 X272.171 Y253.453 E515.06341
