;FLAVOR:Marlin
;TIME:4627
;Filament used: 25.9105m
;Layer height: 0.6
;Generated with Cura_SteamEngine 4.0.0
M140 S84
M105
M190 S84
M104 S245
M105
M109 S245
M82 ;absolute extrusion mode
G28 ;Home
G1 Z15.0 F6000 ;Move the platform down 15mm
;Prime the extruder
G92 E0
G1 F200 E3
G92 E0
G92 E0
G1 F2400 E-9
;LAYER_COUNT:34
;LAYER:0
M107
G0 F9000 X160.361 Y96.73 Z0.5
;TYPE:SKIRT
G1 F2400 E0
G1 F1800 X160.623 Y96.368 E0.08732
G1 X160.945 Y96.059 E0.17452
G1 X161.317 Y95.812 E0.26178
G1 X161.727 Y95.634 E0.34912
G1 X162.162 Y95.533 E0.43638
G1 X162.509 Y95.509 E0.50435
G1 X237.491 Y95.51 E15.15608
G1 X237.936 Y95.55 E15.24338
G1 X238.367 Y95.668 E15.3307
G1 X238.77 Y95.862 E15.4181
G1 X239.132 Y96.124 E15.50541
G1 X239.441 Y96.446 E15.59262
G1 X239.688 Y96.818 E15.67987
G1 X239.866 Y97.228 E15.76721
G1 X239.967 Y97.663 E15.85447
G1 X239.991 Y98.01 E15.92244
G1 X239.99 Y197.995 E35.45984
G1 X239.95 Y198.44 E35.54714
G1 X239.832 Y198.871 E35.63446
G1 X239.638 Y199.274 E35.72186
G1 X239.389 Y199.62 E35.80516
G1 X237.526 Y201.797 E36.36505
G1 X234.097 Y206.171 E37.45108
G1 X230.95 Y210.689 E38.52697
G1 X228.064 Y215.378 E39.60285
G1 X225.435 Y220.245 E40.68376
G1 X223.096 Y225.231 E41.75991
G1 X222.046 Y227.735 E42.29048
G1 X220.119 Y232.951 E43.37704
G1 X218.508 Y238.212 E44.45217
G1 X217.178 Y243.63 E45.5423
G1 X216.655 Y246.243 E46.06301
G1 X215.793 Y251.727 E47.14776
G1 X215.247 Y257.216 E48.22562
G1 X215.01 Y262.75 E49.30798
G1 X214.989 Y301.992 E56.97599
G1 X214.949 Y302.437 E57.0633
G1 X214.83 Y302.868 E57.15067
G1 X214.637 Y303.271 E57.23798
G1 X214.375 Y303.633 E57.3253
G1 X214.052 Y303.942 E57.41264
G1 X213.68 Y304.189 E57.4999
G1 X213.27 Y304.366 E57.58716
G1 X212.835 Y304.467 E57.67442
G1 X212.489 Y304.491 E57.74219
G1 X162.509 Y304.491 E67.50845
G1 X162.064 Y304.451 E67.59576
G1 X161.633 Y304.333 E67.68307
G1 X161.23 Y304.139 E67.77047
G1 X160.868 Y303.877 E67.85779
G1 X160.559 Y303.555 E67.94499
G1 X160.312 Y303.183 E68.03225
G1 X160.134 Y302.773 E68.11959
G1 X160.033 Y302.338 E68.20685
G1 X160.009 Y301.991 E68.27482
G1 X160.009 Y98.009 E108.13357
G1 X160.049 Y97.564 E108.22088
G1 X160.167 Y97.133 E108.3082
G1 X160.361 Y96.73 E108.39559
G0 F9000 X161.166 Y97.34
G1 F1800 X161.355 Y97.05 E108.46323
G1 X161.605 Y96.812 E108.53068
G1 X161.904 Y96.637 E108.59838
G1 X162.234 Y96.534 E108.66593
G1 X162.509 Y96.509 E108.71988
G1 X237.491 Y96.51 E123.37161
G1 X237.835 Y96.55 E123.43929
G1 X238.16 Y96.667 E123.50678
G1 X238.45 Y96.856 E123.57442
G1 X238.688 Y97.106 E123.64187
G1 X238.863 Y97.405 E123.70957
G1 X238.966 Y97.735 E123.77712
G1 X238.991 Y98.01 E123.83107
G1 X238.99 Y197.995 E143.36847
G1 X238.95 Y198.339 E143.43614
G1 X238.833 Y198.664 E143.50364
G1 X238.63 Y198.97 E143.57539
G1 X236.742 Y201.177 E144.14292
G1 X233.296 Y205.573 E145.23438
G1 X230.109 Y210.148 E146.32387
G1 X227.199 Y214.875 E147.40854
G1 X224.543 Y219.792 E148.50055
G1 X222.171 Y224.848 E149.59183
G1 X221.11 Y227.38 E150.12827
G1 X221.108 Y227.389 E150.13007
G1 X219.171 Y232.633 E151.22244
G1 X217.545 Y237.944 E152.30777
G1 X216.203 Y243.405 E153.40662
G1 X215.668 Y246.083 E153.94025
G1 X214.801 Y251.597 E155.03094
G1 X214.249 Y257.145 E156.12039
G1 X214.01 Y262.73 E157.21272
G1 X213.989 Y301.992 E164.88464
G1 X213.949 Y302.335 E164.95212
G1 X213.831 Y302.661 E165.01987
G1 X213.642 Y302.95 E165.08734
G1 X213.392 Y303.189 E165.15492
G1 X213.094 Y303.364 E165.22245
G1 X212.763 Y303.466 E165.29013
G1 X212.489 Y303.491 E165.34389
G1 X162.509 Y303.491 E175.11015
G1 X162.165 Y303.451 E175.17782
G1 X161.84 Y303.334 E175.24532
G1 X161.55 Y303.145 E175.31296
G1 X161.312 Y302.895 E175.38041
G1 X161.137 Y302.596 E175.4481
G1 X161.034 Y302.266 E175.51565
G1 X161.009 Y301.991 E175.56961
G1 X161.009 Y98.009 E215.42837
G1 X161.049 Y97.665 E215.49604
G1 X161.166 Y97.34 E215.56353
G1 F2400 E206.56353
G1 F300 Z1.5
;MESH:FlashingRubberInserterToolSmall.stl
G0 F9000 X236 Y196.5 Z1.5
;TYPE:WALL-INNER
G1 F300 Z0.5
G1 F2400 E215.56353
G1 F1500 X164 Y196.5 E229.63257
G1 X164 Y99.5 E248.58669
G1 X236 Y99.5 E262.65573
G1 X236 Y196.5 E281.60985
G0 F9000 X237 Y197.5
;TYPE:WALL-OUTER
G1 F1500 X163 Y197.5 E296.06969
G1 X163 Y98.5 E315.41462
G1 X237 Y98.5 E329.87446
G1 X237 Y197.5 E349.21939
G0 F9000 X236.5 Y197.5
G0 X235.9 Y196.4
G0 X235.01 Y195.51
;TYPE:SKIN
G1 F1500 X164.99 Y195.51 E362.90153
G1 X164.99 Y100.49 E381.46875
G1 X235.01 Y100.49 E395.15088
G1 X235.01 Y195.51 E413.71811
G1 F2400 E404.71811
G1 F300 Z1.5
G0 F9000 X166.774 Y195.058 Z1.5
G1 F300 Z0.5
G1 F2400 E413.71811
G1 F1500 X165.439 Y193.723 E414.08702
G0 F9000 X165.439 Y192.309
G1 F1500 X168.188 Y195.058 E414.84669
G0 F9000 X169.603 Y195.058
G1 F1500 X165.439 Y190.895 E415.99724
G0 F9000 X165.439 Y189.481
G1 F1500 X171.017 Y195.058 E417.53853
G0 F9000 X172.431 Y195.058
G1 F1500 X165.439 Y188.067 E419.47058
G0 F9000 X165.439 Y186.652
G1 F1500 X173.845 Y195.058 E421.79351
G0 F9000 X175.259 Y195.058
G1 F1500 X165.439 Y185.238 E424.50719
G0 F9000 X165.439 Y183.824
G1 F1500 X176.674 Y195.058 E427.61175
G0 F9000 X178.088 Y195.058
G1 F1500 X165.439 Y182.41 E431.10706
G0 F9000 X165.439 Y180.996
G1 F1500 X179.502 Y195.058 E434.99312
G0 F9000 X180.916 Y195.058
G1 F1500 X165.439 Y179.581 E439.27007
G0 F9000 X165.439 Y178.167
G1 F1500 X182.331 Y195.058 E443.9379
G0 F9000 X183.745 Y195.058
G1 F1500 X165.439 Y176.753 E448.99648
G0 F9000 X165.439 Y175.339
G1 F1500 X185.159 Y195.058 E454.4458
G0 F9000 X186.573 Y195.058
G1 F1500 X165.439 Y173.924 E460.28601
G0 F9000 X165.439 Y172.51
G1 F1500 X187.987 Y195.058 E466.51697
G0 F9000 X189.402 Y195.058
G1 F1500 X165.439 Y171.096 E473.13882
G0 F9000 X165.439 Y169.682
G1 F1500 X190.816 Y195.058 E480.15141
G0 F9000 X192.23 Y195.058
G1 F1500 X165.439 Y168.268 E487.55475
G0 F9000 X165.439 Y166.853
G1 F1500 X193.644 Y195.058 E495.34898
G0 F9000 X195.058 Y195.058
G1 F1500 X165.439 Y165.439 E503.53395
G0 F9000 X165.439 Y164.025
G1 F1500 X196.473 Y195.058 E512.10981
G0 F9000 X197.887 Y195.058
G1 F1500 X165.439 Y162.611 E521.07642
G0 F9000 X165.439 Y161.197
G1 F1500 X199.301 Y195.058 E530.43377
G0 F9000 X200.716 Y195.059
G1 F1500 X165.439 Y159.782 E540.18229
G0 F9000 X165.439 Y158.368
G1 F1500 X202.13 Y195.059 E550.32155
G0 F9000 X203.544 Y195.059
G1 F1500 X165.439 Y156.954 E560.85156
G0 F9000 X165.439 Y155.54
G1 F1500 X204.959 Y195.059 E571.77246
G0 F9000 X206.373 Y195.059
G1 F1500 X165.439 Y154.125 E583.08424
G0 F9000 X165.439 Y152.711
G1 F1500 X207.787 Y195.059 E594.78677
G0 F9000 X209.201 Y195.059
G1 F1500 X165.439 Y151.297 E606.88005
G0 F9000 X165.439 Y149.883
G1 F1500 X210.615 Y195.059 E619.36408
G0 F9000 X212.03 Y195.059
G1 F1500 X165.439 Y148.469 E632.23899
G0 F9000 X165.439 Y147.054
G1 F1500 X213.444 Y195.059 E645.50478
G0 F9000 X214.858 Y195.059
G1 F1500 X165.439 Y145.64 E659.16133
G0 F9000 X165.439 Y144.226
G1 F1500 X216.272 Y195.059 E673.20862
G0 F9000 X217.687 Y195.059
G1 F1500 X165.439 Y142.812 E687.6468
G0 F9000 X165.439 Y141.398
G1 F1500 X219.101 Y195.059 E702.47572
G0 F9000 X220.515 Y195.059
G1 F1500 X165.439 Y139.983 E717.69554
G0 F9000 X165.439 Y138.569
G1 F1500 X221.929 Y195.059 E733.30609
G0 F9000 X223.343 Y195.059
G1 F1500 X165.439 Y137.155 E749.3074
G0 F9000 X165.439 Y135.741
G1 F1500 X224.758 Y195.059 E765.69959
G0 F9000 X226.172 Y195.059
G1 F1500 X165.439 Y134.326 E782.48267
G0 F9000 X165.439 Y132.912
G1 F1500 X227.586 Y195.059 E799.6565
G0 F9000 X229 Y195.059
G1 F1500 X165.439 Y131.498 E817.22107
G0 F9000 X165.439 Y130.084
G1 F1500 X230.414 Y195.059 E835.17639
G0 F9000 X231.829 Y195.059
G1 F1500 X165.439 Y128.67 E853.5226
G0 F9000 X165.439 Y127.255
G1 F1500 X233.243 Y195.059 E872.25969
G0 F9000 X234.559 Y194.961
G1 F1500 X165.439 Y125.841 E891.36045
G0 F9000 X165.439 Y124.427
G1 F1500 X234.559 Y193.547 E910.46121
G0 F9000 X234.559 Y192.132
G1 F1500 X165.439 Y123.013 E929.56183
G0 F9000 X165.439 Y121.599
G1 F1500 X234.559 Y190.718 E948.66245
G0 F9000 X234.559 Y189.304
G1 F1500 X165.439 Y120.184 E967.7632
G0 F9000 X165.439 Y118.77
G1 F1500 X234.559 Y187.89 E986.86396
G0 F9000 X234.559 Y186.476
G1 F1500 X165.439 Y117.356 E1005.96472
G0 F9000 X165.439 Y115.942
G1 F1500 X234.559 Y185.061 E1025.06534
G0 F9000 X234.559 Y183.647
G1 F1500 X165.439 Y114.527 E1044.1661
G0 F9000 X165.439 Y113.113
G1 F1500 X234.559 Y182.233 E1063.26686
G0 F9000 X234.559 Y180.819
G1 F1500 X165.439 Y111.699 E1082.36761
G0 F9000 X165.439 Y110.285
G1 F1500 X234.559 Y179.405 E1101.46837
G0 F9000 X234.559 Y177.99
G1 F1500 X165.439 Y108.871 E1120.56899
G0 F9000 X165.439 Y107.456
G1 F1500 X234.559 Y176.576 E1139.66975
G0 F9000 X234.559 Y175.162
G1 F1500 X165.439 Y106.042 E1158.77051
G0 F9000 X165.439 Y104.628
G1 F1500 X234.559 Y173.748 E1177.87127
G0 F9000 X234.559 Y172.333
G1 F1500 X165.439 Y103.214 E1196.97189
G0 F9000 X165.439 Y101.8
G1 F1500 X234.559 Y170.919 E1216.07251
G0 F9000 X234.559 Y169.505
G1 F1500 X165.994 Y100.94 E1235.0199
G0 F9000 X167.408 Y100.94
G1 F1500 X234.559 Y168.091 E1253.57654
G0 F9000 X234.559 Y166.677
G1 F1500 X168.822 Y100.94 E1271.74243
G0 F9000 X170.236 Y100.94
G1 F1500 X234.559 Y165.262 E1289.51744
G0 F9000 X234.559 Y163.848
G1 F1500 X171.65 Y100.94 E1306.9017
G0 F9000 X173.065 Y100.94
G1 F1500 X234.559 Y162.434 E1323.89507
G0 F9000 X234.559 Y161.02
G1 F1500 X174.479 Y100.94 E1340.4977
G0 F9000 X175.893 Y100.94
G1 F1500 X234.559 Y159.606 E1356.70958
G0 F9000 X234.559 Y158.191
G1 F1500 X177.307 Y100.94 E1372.53057
G0 F9000 X178.721 Y100.94
G1 F1500 X234.559 Y156.777 E1387.96082
G0 F9000 X234.559 Y155.363
G1 F1500 X180.136 Y100.94 E1403.00018
G0 F9000 X181.55 Y100.94
G1 F1500 X234.559 Y153.949 E1417.64879
G0 F9000 X234.559 Y152.534
G1 F1500 X182.964 Y100.94 E1431.90652
G0 F9000 X184.378 Y100.94
G1 F1500 X234.559 Y151.12 E1445.77349
G0 F9000 X234.559 Y149.706
G1 F1500 X185.793 Y100.94 E1459.24959
G0 F9000 X187.207 Y100.94
G1 F1500 X234.559 Y148.292 E1472.33493
G0 F9000 X234.559 Y146.878
G1 F1500 X188.621 Y100.94 E1485.02953
G0 F9000 X190.035 Y100.94
G1 F1500 X234.559 Y145.463 E1497.33324
G0 F9000 X234.559 Y144.049
G1 F1500 X191.449 Y100.94 E1509.24621
G0 F9000 X192.864 Y100.94
G1 F1500 X234.559 Y142.635 E1520.76829
G0 F9000 X234.559 Y141.221
G1 F1500 X194.278 Y100.94 E1531.89962
G0 F9000 X195.692 Y100.94
G1 F1500 X234.559 Y139.807 E1542.6402
G0 F9000 X234.559 Y138.392
G1 F1500 X197.106 Y100.94 E1552.9899
G0 F9000 X198.52 Y100.94
G1 F1500 X234.559 Y136.978 E1562.94885
G0 F9000 X234.559 Y135.564
G1 F1500 X199.935 Y100.94 E1572.51692
G0 F9000 X201.349 Y100.94
G1 F1500 X234.559 Y134.15 E1581.69424
G0 F9000 X234.559 Y132.735
G1 F1500 X202.763 Y100.94 E1590.48067
G0 F9000 X204.177 Y100.94
G1 F1500 X234.559 Y131.321 E1598.87635
G0 F9000 X234.559 Y129.907
G1 F1500 X205.592 Y100.94 E1606.88115
G0 F9000 X207.006 Y100.94
G1 F1500 X234.559 Y128.493 E1614.4952
G0 F9000 X234.559 Y127.079
G1 F1500 X208.42 Y100.94 E1621.7185
G0 F9000 X209.834 Y100.94
G1 F1500 X234.559 Y125.664 E1628.55092
G0 F9000 X234.559 Y124.25
G1 F1500 X211.248 Y100.94 E1634.99259
G0 F9000 X212.663 Y100.94
G1 F1500 X234.559 Y122.836 E1641.04337
G0 F9000 X234.559 Y121.422
G1 F1500 X214.077 Y100.94 E1646.70341
G0 F9000 X215.491 Y100.94
G1 F1500 X234.559 Y120.008 E1651.9727
G0 F9000 X234.559 Y118.593
G1 F1500 X216.905 Y100.94 E1656.8511
G0 F9000 X218.319 Y100.94
G1 F1500 X234.559 Y117.179 E1661.33876
G0 F9000 X234.559 Y115.765
G1 F1500 X219.734 Y100.94 E1665.43553
G0 F9000 X221.148 Y100.94
G1 F1500 X234.559 Y114.351 E1669.14155
G0 F9000 X234.559 Y112.936
G1 F1500 X222.562 Y100.94 E1672.45669
G0 F9000 X223.976 Y100.94
G1 F1500 X234.559 Y111.522 E1675.38108
G0 F9000 X234.559 Y110.108
G1 F1500 X225.39 Y100.94 E1677.91472
G0 F9000 X226.805 Y100.94
G1 F1500 X234.559 Y108.694 E1680.05747
G0 F9000 X234.559 Y107.28
G1 F1500 X228.219 Y100.94 E1681.80948
G0 F9000 X229.633 Y100.94
G1 F1500 X234.559 Y105.865 E1683.17061
G0 F9000 X234.559 Y104.451
G1 F1500 X231.047 Y100.94 E1684.14098
G0 F9000 X232.462 Y100.94
G1 F1500 X234.559 Y103.037 E1684.72047
G0 F9000 X234.559 Y101.623
G1 F1500 X233.876 Y100.94 E1684.90921
G1 F2400 E1675.90921
G1 F300 Z1.5
;MESH:FlashingRubberInserterTool-XSmall.stl
G0 F9000 X211 Y300.5 Z1.5
;TYPE:WALL-INNER
G1 F300 Z0.5
G1 F2400 E1684.90921
G1 F1500 X164 Y300.5 E1694.09317
G1 X164 Y203.5 E1713.04729
G1 X211 Y203.5 E1722.23124
G1 X211 Y300.5 E1741.18536
G0 F9000 X212 Y301.5
;TYPE:WALL-OUTER
G1 F1500 X163 Y301.5 E1750.76012
G1 X163 Y202.5 E1770.10505
G1 X212 Y202.5 E1779.67981
G1 X212 Y301.5 E1799.02473
G0 F9000 X211.5 Y301.5
G0 X210.9 Y300.4
G0 X210.01 Y299.51
;TYPE:SKIN
G1 F1500 X164.99 Y299.51 E1807.82179
G1 X164.99 Y204.49 E1826.38901
G1 X210.01 Y204.49 E1835.18607
G1 X210.01 Y299.51 E1853.75329
G1 F2400 E1844.75329
G1 F300 Z1.5
G0 F9000 X166.123 Y299.059 Z1.5
G1 F300 Z0.5
G1 F2400 E1853.75329
G1 F1500 X165.44 Y298.376 E1853.94203
G0 F9000 X165.44 Y296.962
G1 F1500 X167.537 Y299.059 E1854.52152
G0 F9000 X168.951 Y299.059
G1 F1500 X165.44 Y295.548 E1855.49176
G0 F9000 X165.44 Y294.133
G1 F1500 X170.366 Y299.059 E1856.85302
G0 F9000 X171.78 Y299.059
G1 F1500 X165.44 Y292.719 E1858.60503
G0 F9000 X165.44 Y291.305
G1 F1500 X173.194 Y299.059 E1860.74778
G0 F9000 X174.608 Y299.059
G1 F1500 X165.44 Y289.891 E1863.28128
G0 F9000 X165.44 Y288.476
G1 F1500 X176.022 Y299.059 E1866.20567
G0 F9000 X177.437 Y299.059
G1 F1500 X165.44 Y287.062 E1869.52095
G0 F9000 X165.44 Y285.648
G1 F1500 X178.851 Y299.059 E1873.22697
G0 F9000 X180.265 Y299.059
G1 F1500 X165.44 Y284.234 E1877.32374
G0 F9000 X165.44 Y282.82
G1 F1500 X181.679 Y299.059 E1881.81126
G0 F9000 X183.093 Y299.059
G1 F1500 X165.44 Y281.405 E1886.68966
G0 F9000 X165.44 Y279.991
G1 F1500 X184.508 Y299.059 E1891.95895
G0 F9000 X185.922 Y299.059
G1 F1500 X165.44 Y278.577 E1897.61899
G0 F9000 X165.44 Y277.163
G1 F1500 X187.336 Y299.059 E1903.66977
G0 F9000 X188.75 Y299.059
G1 F1500 X165.44 Y275.749 E1910.1113
G0 F9000 X165.44 Y274.334
G1 F1500 X190.165 Y299.059 E1916.94386
G0 F9000 X191.579 Y299.059
G1 F1500 X165.44 Y272.92 E1924.16716
G0 F9000 X165.44 Y271.506
G1 F1500 X192.993 Y299.059 E1931.78121
G0 F9000 X194.407 Y299.059
G1 F1500 X165.44 Y270.092 E1939.78601
G0 F9000 X165.44 Y268.677
G1 F1500 X195.821 Y299.059 E1948.18169
G0 F9000 X197.236 Y299.059
G1 F1500 X165.44 Y267.263 E1956.96826
G0 F9000 X165.44 Y265.849
G1 F1500 X198.65 Y299.059 E1966.14558
G0 F9000 X200.064 Y299.059
G1 F1500 X165.44 Y264.435 E1975.71365
G0 F9000 X165.44 Y263.021
G1 F1500 X201.478 Y299.059 E1985.67246
G0 F9000 X202.892 Y299.059
G1 F1500 X165.44 Y261.606 E1996.02216
G0 F9000 X165.44 Y260.192
G1 F1500 X204.307 Y299.059 E2006.76274
G0 F9000 X205.721 Y299.059
G1 F1500 X165.44 Y258.778 E2017.89407
G0 F9000 X165.44 Y257.364
G1 F1500 X207.135 Y299.059 E2029.41615
G0 F9000 X208.549 Y299.059
G1 F1500 X165.44 Y255.95 E2041.32898
G0 F9000 X165.44 Y254.535
G1 F1500 X209.559 Y298.655 E2053.52105
G0 F9000 X209.559 Y297.24
G1 F1500 X165.44 Y253.121 E2065.71298
G0 F9000 X165.44 Y251.707
G1 F1500 X209.559 Y295.826 E2077.90491
G0 F9000 X209.559 Y294.412
G1 F1500 X165.44 Y250.293 E2090.09685
G0 F9000 X165.44 Y248.878
G1 F1500 X209.559 Y292.998 E2102.28892
G0 F9000 X209.559 Y291.583
G1 F1500 X165.44 Y247.464 E2114.48085
G0 F9000 X165.44 Y246.05
G1 F1500 X209.559 Y290.169 E2126.67278
G0 F9000 X209.559 Y288.755
G1 F1500 X165.44 Y244.636 E2138.86471
G0 F9000 X165.44 Y243.222
G1 F1500 X209.559 Y287.341 E2151.05665
G0 F9000 X209.559 Y285.927
G1 F1500 X165.44 Y241.807 E2163.24872
G0 F9000 X165.44 Y240.393
G1 F1500 X209.559 Y284.512 E2175.44065
G0 F9000 X209.559 Y283.098
G1 F1500 X165.44 Y238.979 E2187.63258
G0 F9000 X165.44 Y237.565
G1 F1500 X209.559 Y281.684 E2199.82451
G0 F9000 X209.559 Y280.27
G1 F1500 X165.44 Y236.151 E2212.01644
G0 F9000 X165.44 Y234.736
G1 F1500 X209.559 Y278.856 E2224.20851
G0 F9000 X209.559 Y277.441
G1 F1500 X165.44 Y233.322 E2236.40045
G0 F9000 X165.44 Y231.908
G1 F1500 X209.559 Y276.027 E2248.59238
G0 F9000 X209.559 Y274.613
G1 F1500 X165.44 Y230.494 E2260.78431
G0 F9000 X165.44 Y229.079
G1 F1500 X209.559 Y273.199 E2272.97638
G0 F9000 X209.559 Y271.784
G1 F1500 X165.44 Y227.665 E2285.16831
G0 F9000 X165.44 Y226.251
G1 F1500 X209.559 Y270.37 E2297.36025
