;FLAVOR:Marlin
;TIME:8279
;Filament used: 51.1957m
;Layer height: 0.6
;Generated with Cura_SteamEngine 4.0.0
M140 S84
M105
M190 S84
M104 S245
M105
M109 S245
M82 ;absolute extrusion mode
G28 ;Home
G1 Z15.0 F6000 ;Move the platform down 15mm
;Prime the extruder
G92 E0
G1 F200 E3
G92 E0
G92 E0
G1 F2400 E-9
;LAYER_COUNT:84
;LAYER:0
M107
G0 F9000 X123.445 Y148.059 Z0.5
;TYPE:SKIRT
G1 F2400 E0
G1 F1800 X123.817 Y147.812 E0.08725
G1 X124.227 Y147.634 E0.17459
G1 X124.662 Y147.533 E0.26186
G1 X125.009 Y147.509 E0.32982
G1 X274.991 Y147.51 E29.6368
G1 X275.436 Y147.55 E29.7241
G1 X275.867 Y147.668 E29.81142
G1 X276.27 Y147.862 E29.89882
G1 X276.632 Y148.124 E29.98614
G1 X276.941 Y148.446 E30.07334
G1 X277.188 Y148.818 E30.1606
G1 X277.366 Y149.228 E30.24794
G1 X277.467 Y149.663 E30.3352
G1 X277.491 Y150.01 E30.40317
G1 X277.491 Y249.991 E49.93978
G1 X277.451 Y250.436 E50.02709
G1 X277.333 Y250.867 E50.11441
G1 X277.139 Y251.27 E50.2018
G1 X276.877 Y251.632 E50.28912
G1 X276.555 Y251.941 E50.37633
G1 X276.183 Y252.188 E50.46358
G1 X275.773 Y252.366 E50.55092
G1 X275.338 Y252.467 E50.63818
G1 X274.991 Y252.491 E50.70615
G1 X125.009 Y252.491 E80.01312
G1 X124.564 Y252.451 E80.10043
G1 X124.133 Y252.333 E80.18775
G1 X123.73 Y252.139 E80.27514
G1 X123.368 Y251.877 E80.36246
G1 X123.059 Y251.555 E80.44967
G1 X122.812 Y251.183 E80.53692
G1 X122.634 Y250.773 E80.62426
G1 X122.533 Y250.338 E80.71152
G1 X122.509 Y249.991 E80.77949
G1 X122.509 Y150.009 E100.3163
G1 X122.549 Y149.564 E100.40361
G1 X122.667 Y149.133 E100.49093
G1 X122.861 Y148.73 E100.57832
G1 X123.123 Y148.368 E100.66564
G1 X123.445 Y148.059 E100.75285
G0 F9000 X124.105 Y148.812
G1 F1800 X124.404 Y148.637 E100.82054
G1 X124.734 Y148.534 E100.88809
G1 X125.009 Y148.509 E100.94205
G1 X274.991 Y148.51 E130.24903
G1 X275.335 Y148.55 E130.3167
G1 X275.66 Y148.667 E130.3842
G1 X275.95 Y148.856 E130.45183
G1 X276.188 Y149.106 E130.51928
G1 X276.363 Y149.405 E130.58698
G1 X276.466 Y149.735 E130.65453
G1 X276.491 Y150.01 E130.70849
G1 X276.491 Y249.991 E150.2451
G1 X276.451 Y250.335 E150.31278
G1 X276.334 Y250.66 E150.38027
G1 X276.145 Y250.95 E150.44791
G1 X275.895 Y251.188 E150.51536
G1 X275.596 Y251.363 E150.58306
G1 X275.266 Y251.466 E150.65061
G1 X274.991 Y251.491 E150.70456
G1 X125.009 Y251.491 E180.01154
G1 X124.665 Y251.451 E180.07921
G1 X124.34 Y251.334 E180.14671
G1 X124.05 Y251.145 E180.21435
G1 X123.812 Y250.895 E180.2818
G1 X123.637 Y250.596 E180.34949
G1 X123.534 Y250.266 E180.41704
G1 X123.509 Y249.991 E180.471
G1 X123.509 Y150.009 E200.00781
G1 X123.549 Y149.665 E200.07549
G1 X123.666 Y149.34 E200.14298
G1 X123.855 Y149.05 E200.21062
G1 X124.105 Y148.812 E200.27807
G1 F2400 E191.27807
G1 F300 Z1.5
;MESH:FlashingRubberInserterTool.stl
G0 F9000 X273.5 Y248.5 Z1.5
;TYPE:WALL-INNER
G1 F300 Z0.5
G1 F2400 E200.27807
G1 F1500 X126.5 Y248.5 E229.00235
G1 X126.5 Y151.5 E247.95647
G1 X273.5 Y151.5 E276.68076
G1 X273.5 Y248.5 E295.63488
G0 F9000 X274.5 Y249.5
;TYPE:WALL-OUTER
G1 F1500 X125.5 Y249.5 E324.74997
G1 X125.5 Y150.5 E344.09489
G1 X274.5 Y150.5 E373.20998
G1 X274.5 Y249.5 E392.55491
G0 F9000 X274 Y249.5
G0 X273.4 Y248.4
G0 X272.51 Y247.51
;TYPE:SKIN
G1 F1500 X127.49 Y247.51 E420.89229
G1 X127.49 Y152.49 E439.45952
G1 X272.51 Y152.49 E467.7969
G1 X272.51 Y247.51 E486.36412
G1 F2400 E477.36412
G1 F300 Z1.5
G0 F9000 X272.059 Y153.265 Z1.5
G1 F300 Z0.5
G1 F2400 E486.36412
G1 F1500 X271.734 Y152.94 E486.45393
G0 F9000 X270.319 Y152.94
G1 F1500 X272.059 Y154.679 E486.93463
G0 F9000 X272.059 Y156.093
G1 F1500 X268.905 Y152.94 E487.80607
G0 F9000 X267.491 Y152.94
G1 F1500 X272.059 Y157.508 E489.0684
G0 F9000 X272.059 Y158.922
G1 F1500 X266.077 Y152.94 E490.72148
G0 F9000 X264.662 Y152.94
G1 F1500 X272.059 Y160.336 E492.76545
G0 F9000 X272.059 Y161.75
G1 F1500 X263.248 Y152.94 E495.20016
G0 F9000 X261.834 Y152.94
G1 F1500 X272.059 Y163.164 E498.02562
G0 F9000 X272.059 Y164.579
G1 F1500 X260.42 Y152.94 E501.24196
G0 F9000 X259.006 Y152.94
G1 F1500 X272.059 Y165.993 E504.84905
G0 F9000 X272.059 Y167.407
G1 F1500 X257.591 Y152.94 E508.84703
G0 F9000 X256.177 Y152.94
G1 F1500 X272.059 Y168.821 E513.23576
G0 F9000 X272.059 Y170.235
G1 F1500 X254.763 Y152.94 E518.01523
G0 F9000 X253.349 Y152.94
G1 F1500 X272.059 Y171.65 E523.18559
G0 F9000 X272.059 Y173.064
G1 F1500 X251.935 Y152.94 E528.74669
G0 F9000 X250.52 Y152.94
G1 F1500 X272.059 Y174.478 E534.69868
G0 F9000 X272.059 Y175.892
G1 F1500 X249.106 Y152.94 E541.04142
G0 F9000 X247.692 Y152.94
G1 F1500 X272.059 Y177.307 E547.77505
G0 F9000 X272.059 Y178.721
G1 F1500 X246.278 Y152.94 E554.89942
G0 F9000 X244.864 Y152.94
G1 F1500 X272.059 Y180.135 E562.41454
G0 F9000 X272.059 Y181.549
G1 F1500 X243.449 Y152.94 E570.32055
G0 F9000 X242.035 Y152.94
G1 F1500 X272.059 Y182.963 E578.6173
G0 F9000 X272.059 Y184.378
G1 F1500 X240.621 Y152.94 E587.30494
G0 F9000 X239.207 Y152.94
G1 F1500 X272.059 Y185.792 E596.38333
G0 F9000 X272.059 Y187.206
G1 F1500 X237.792 Y152.94 E605.8526
G0 F9000 X236.378 Y152.94
G1 F1500 X272.059 Y188.62 E615.71262
G0 F9000 X272.059 Y190.034
G1 F1500 X234.964 Y152.94 E625.96339
G0 F9000 X233.55 Y152.94
G1 F1500 X272.059 Y191.449 E636.60504
G0 F9000 X272.059 Y192.863
G1 F1500 X232.136 Y152.94 E647.63744
G0 F9000 X230.721 Y152.94
G1 F1500 X272.059 Y194.277 E659.06073
G0 F9000 X272.059 Y195.691
G1 F1500 X229.307 Y152.94 E670.87477
G0 F9000 X227.893 Y152.94
G1 F1500 X272.059 Y197.106 E683.07969
G0 F9000 X272.059 Y198.52
G1 F1500 X226.479 Y152.94 E695.67535
G0 F9000 X225.065 Y152.94
G1 F1500 X272.059 Y199.934 E708.66177
G0 F9000 X272.059 Y201.348
G1 F1500 X223.65 Y152.94 E722.03907
G0 F9000 X222.236 Y152.94
G1 F1500 X272.059 Y202.762 E735.80712
G0 F9000 X272.059 Y204.177
G1 F1500 X220.822 Y152.94 E749.96605
G0 F9000 X219.408 Y152.94
G1 F1500 X272.059 Y205.591 E764.51574
G0 F9000 X272.059 Y207.005
G1 F1500 X217.993 Y152.94 E779.4563
G0 F9000 X216.579 Y152.94
G1 F1500 X272.059 Y208.419 E794.78762
G0 F9000 X272.059 Y209.833
G1 F1500 X215.165 Y152.94 E810.50968
G0 F9000 X213.751 Y152.94
G1 F1500 X272.059 Y211.248 E826.62263
G0 F9000 X272.059 Y212.662
G1 F1500 X212.337 Y152.94 E843.12633
G0 F9000 X210.922 Y152.94
G1 F1500 X272.059 Y214.076 E860.02091
G0 F9000 X272.059 Y215.49
G1 F1500 X209.508 Y152.94 E877.30624
G0 F9000 X208.094 Y152.94
G1 F1500 X272.059 Y216.905 E894.98245
G0 F9000 X272.059 Y218.319
G1 F1500 X206.68 Y152.94 E913.04942
G0 F9000 X205.266 Y152.94
G1 F1500 X272.059 Y219.733 E931.50713
G0 F9000 X272.059 Y221.147
G1 F1500 X203.851 Y152.94 E950.35572
G0 F9000 X202.437 Y152.94
G1 F1500 X272.059 Y222.561 E969.59507
G0 F9000 X272.059 Y223.976
G1 F1500 X201.023 Y152.94 E989.2253
G0 F9000 X199.609 Y152.94
G1 F1500 X272.059 Y225.39 E1009.24627
G0 F9000 X272.059 Y226.804
G1 F1500 X198.194 Y152.94 E1029.65814
G0 F9000 X196.78 Y152.94
G1 F1500 X272.059 Y228.218 E1050.46075
G0 F9000 X272.059 Y229.632
G1 F1500 X195.366 Y152.94 E1071.6541
G0 F9000 X193.952 Y152.94
G1 F1500 X272.059 Y231.047 E1093.23835
G0 F9000 X272.059 Y232.461
G1 F1500 X192.538 Y152.94 E1115.21334
G0 F9000 X191.123 Y152.94
G1 F1500 X272.059 Y233.875 E1137.57921
G0 F9000 X272.059 Y235.289
G1 F1500 X189.709 Y152.94 E1160.33584
G0 F9000 X188.295 Y152.94
G1 F1500 X272.059 Y236.703 E1183.48321
G0 F9000 X272.059 Y238.118
G1 F1500 X186.881 Y152.94 E1207.02147
G0 F9000 X185.467 Y152.94
G1 F1500 X272.059 Y239.532 E1230.95047
G0 F9000 X272.059 Y240.946
G1 F1500 X184.052 Y152.94 E1255.27037
G0 F9000 X182.638 Y152.94
G1 F1500 X272.059 Y242.36 E1279.981
G0 F9000 X272.059 Y243.775
G1 F1500 X181.224 Y152.94 E1305.08253
G0 F9000 X179.81 Y152.94
G1 F1500 X272.059 Y245.189 E1330.5748
G0 F9000 X272.059 Y246.603
G1 F1500 X178.395 Y152.94 E1356.45796
G0 F9000 X176.981 Y152.94
G1 F1500 X271.101 Y247.059 E1382.46713
G0 F9000 X269.686 Y247.059
G1 F1500 X175.567 Y152.94 E1408.47616
G0 F9000 X174.153 Y152.94
G1 F1500 X268.272 Y247.059 E1434.48519
G0 F9000 X266.858 Y247.059
G1 F1500 X172.739 Y152.94 E1460.49422
G0 F9000 X171.324 Y152.94
G1 F1500 X265.444 Y247.059 E1486.50339
G0 F9000 X264.03 Y247.059
G1 F1500 X169.91 Y152.94 E1512.51256
G0 F9000 X168.496 Y152.94
G1 F1500 X262.615 Y247.059 E1538.52159
G0 F9000 X261.201 Y247.059
G1 F1500 X167.082 Y152.94 E1564.53063
G0 F9000 X165.668 Y152.94
G1 F1500 X259.787 Y247.059 E1590.53966
G0 F9000 X258.373 Y247.059
G1 F1500 X164.253 Y152.94 E1616.54883
G0 F9000 X162.839 Y152.94
G1 F1500 X256.959 Y247.059 E1642.558
G0 F9000 X255.544 Y247.059
G1 F1500 X161.425 Y152.94 E1668.56703
G0 F9000 X160.011 Y152.94
G1 F1500 X254.13 Y247.059 E1694.57606
G0 F9000 X252.716 Y247.059
G1 F1500 X158.596 Y152.94 E1720.58523
G0 F9000 X157.182 Y152.94
G1 F1500 X251.302 Y247.059 E1746.5944
G0 F9000 X249.888 Y247.059
G1 F1500 X155.768 Y152.94 E1772.60357
G0 F9000 X154.354 Y152.94
G1 F1500 X248.473 Y247.059 E1798.6126
G0 F9000 X247.059 Y247.059
G1 F1500 X152.94 Y152.94 E1824.62163
G0 F9000 X151.525 Y152.94
G1 F1500 X245.645 Y247.059 E1850.6308
G0 F9000 X244.231 Y247.059
G1 F1500 X150.111 Y152.94 E1876.63997
G0 F9000 X148.697 Y152.94
G1 F1500 X242.816 Y247.059 E1902.649
G0 F9000 X241.402 Y247.059
G1 F1500 X147.283 Y152.94 E1928.65803
G0 F9000 X145.869 Y152.94
G1 F1500 X239.988 Y247.059 E1954.66707
G0 F9000 X238.574 Y247.059
G1 F1500 X144.454 Y152.94 E1980.67624
G0 F9000 X143.04 Y152.94
G1 F1500 X237.16 Y247.059 E2006.68541
G0 F9000 X235.745 Y247.059
G1 F1500 X141.626 Y152.94 E2032.69444
G0 F9000 X140.212 Y152.94
G1 F1500 X234.331 Y247.059 E2058.70347
G0 F9000 X232.917 Y247.059
G1 F1500 X138.797 Y152.94 E2084.71264
G0 F9000 X137.383 Y152.94
G1 F1500 X231.503 Y247.059 E2110.72181
G0 F9000 X230.089 Y247.059
G1 F1500 X135.969 Y152.94 E2136.73098
G0 F9000 X134.555 Y152.94
G1 F1500 X228.674 Y247.059 E2162.74001
G0 F9000 X227.26 Y247.059
G1 F1500 X133.141 Y152.94 E2188.74904
G0 F9000 X131.726 Y152.94
G1 F1500 X225.846 Y247.059 E2214.75821
G0 F9000 X224.432 Y247.059
G1 F1500 X130.312 Y152.94 E2240.76738
G0 F9000 X128.898 Y152.94
G1 F1500 X223.017 Y247.059 E2266.77641
G0 F9000 X221.603 Y247.059
G1 F1500 X127.94 Y153.396 E2292.65943
G0 F9000 X127.94 Y154.81
G1 F1500 X220.189 Y247.059 E2318.1517
G0 F9000 X218.775 Y247.059
G1 F1500 X127.94 Y156.224 E2343.25323
G0 F9000 X127.94 Y157.638
G1 F1500 X217.361 Y247.059 E2367.964
G0 F9000 X215.946 Y247.059
G1 F1500 X127.94 Y159.053 E2392.28376
G0 F9000 X127.94 Y160.467
G1 F1500 X214.532 Y247.059 E2416.21276
G0 F9000 X213.118 Y247.059
G1 F1500 X127.94 Y161.881 E2439.75102
G0 F9000 X127.94 Y163.295
G1 F1500 X211.704 Y247.059 E2462.89853
G0 F9000 X210.29 Y247.059
G1 F1500 X127.94 Y164.709 E2485.65529
G0 F9000 X127.94 Y166.124
G1 F1500 X208.875 Y247.059 E2508.02103
G0 F9000 X207.461 Y247.059
G1 F1500 X127.94 Y167.538 E2529.99602
G0 F9000 X127.94 Y168.952
G1 F1500 X206.047 Y247.059 E2551.58027
G0 F9000 X204.633 Y247.059
G1 F1500 X127.94 Y170.366 E2572.77376
G0 F9000 X127.94 Y171.78
G1 F1500 X203.218 Y247.059 E2593.57637
G0 F9000 X201.804 Y247.059
G1 F1500 X127.94 Y173.195 E2613.9881
G0 F9000 X127.94 Y174.609
G1 F1500 X200.39 Y247.059 E2634.00908
G0 F9000 X198.976 Y247.059
G1 F1500 X127.94 Y176.023 E2653.6393
G0 F9000 X127.94 Y177.437
G1 F1500 X197.562 Y247.059 E2672.87879
G0 F9000 X196.147 Y247.059
G1 F1500 X127.94 Y178.852 E2691.72724
G0 F9000 X127.94 Y180.266
G1 F1500 X194.733 Y247.059 E2710.18495
G0 F9000 X193.319 Y247.059
G1 F1500 X127.94 Y181.68 E2728.25192
G0 F9000 X127.94 Y183.094
G1 F1500 X191.905 Y247.059 E2745.92813
G0 F9000 X190.491 Y247.059
G1 F1500 X127.94 Y184.508 E2763.2136
G0 F9000 X127.94 Y185.923
G1 F1500 X189.076 Y247.059 E2780.10804
G0 F9000 X187.662 Y247.059
G1 F1500 X127.94 Y187.337 E2796.61174
G0 F9000 X127.94 Y188.751
G1 F1500 X186.248 Y247.059 E2812.72469
G0 F9000 X184.834 Y247.059
G1 F1500 X127.94 Y190.165 E2828.44689
G0 F9000 X127.94 Y191.579
G1 F1500 X183.419 Y247.059 E2843.77821
G0 F9000 X182.005 Y247.059
G1 F1500 X127.94 Y192.994 E2858.71863
G0 F9000 X127.94 Y194.408
G1 F1500 X180.591 Y247.059 E2873.26832
G0 F9000 X179.177 Y247.059
G1 F1500 X127.94 Y195.822 E2887.42725
G0 F9000 X127.94 Y197.236
G1 F1500 X177.763 Y247.059 E2901.19544
G0 F9000 X176.348 Y247.059
G1 F1500 X127.94 Y198.651 E2914.5726
G0 F9000 X127.94 Y200.065
G1 F1500 X174.934 Y247.059 E2927.55902
G0 F9000 X173.52 Y247.059
G1 F1500 X127.94 Y201.479 E2940.15468
G0 F9000 X127.94 Y202.893
G1 F1500 X172.106 Y247.059 E2952.3596
G0 F9000 X170.692 Y247.059
G1 F1500 X127.94 Y204.307 E2964.17378
G0 F9000 X127.94 Y205.722
G1 F1500 X169.277 Y247.059 E2975.59693
G0 F9000 X167.863 Y247.059
G1 F1500 X127.94 Y207.136 E2986.62933
G0 F9000 X127.94 Y208.55
G1 F1500 X166.449 Y247.059 E2997.27098
G0 F9000 X165.035 Y247.059
G1 F1500 X127.94 Y209.964 E3007.52189
G0 F9000 X127.94 Y211.378
G1 F1500 X163.62 Y247.059 E3017.38191
G0 F9000 X162.206 Y247.059
G1 F1500 X127.94 Y212.793 E3026.85104
G0 F9000 X127.94 Y214.207
G1 F1500 X160.792 Y247.059 E3035.92943
G0 F9000 X159.378 Y247.059
G1 F1500 X127.94 Y215.621 E3044.61707
G0 F9000 X127.94 Y217.035
G1 F1500 X157.964 Y247.059 E3052.91396
G0 F9000 X156.549 Y247.059
G1 F1500 X127.94 Y218.45 E3060.81983
G0 F9000 X127.94 Y219.864
G1 F1500 X155.135 Y247.059 E3068.33495
G0 F9000 X153.721 Y247.059
G1 F1500 X127.94 Y221.278 E3075.45932
G0 F9000 X127.94 Y222.692
G1 F1500 X152.307 Y247.059 E3082.19295
G0 F9000 X150.893 Y247.059
G1 F1500 X127.94 Y224.106 E3088.53582
G0 F9000 X127.94 Y225.521
G1 F1500 X149.478 Y247.059 E3094.48768
G0 F9000 X148.064 Y247.059
G1 F1500 X127.94 Y226.935 E3100.04878
G0 F9000 X127.94 Y228.349
G1 F1500 X146.65 Y247.059 E3105.21914
G0 F9000 X145.236 Y247.059
G1 F1500 X127.94 Y229.763 E3109.99875
G0 F9000 X127.94 Y231.177
G1 F1500 X143.821 Y247.059 E3114.38748
G0 F9000 X142.407 Y247.059
G1 F1500 X127.94 Y232.592 E3118.38532
G0 F9000 X127.94 Y234.006
G1 F1500 X140.993 Y247.059 E3121.99241
G0 F9000 X139.579 Y247.059
G1 F1500 X127.94 Y235.42 E3125.20875
G0 F9000 X127.94 Y236.834
G1 F1500 X138.165 Y247.059 E3128.03435
G0 F9000 X136.75 Y247.059
G1 F1500 X127.94 Y238.249 E3130.46892
G0 F9000 X127.94 Y239.663
G1 F1500 X135.336 Y247.059 E3132.51275
G0 F9000 X133.922 Y247.059
G1 F1500 X127.94 Y241.077 E3134.16583
G0 F9000 X127.94 Y242.491
G1 F1500 X132.508 Y247.059 E3135.42816
G0 F9000 X131.094 Y247.059
G1 F1500 X127.94 Y243.905 E3136.29974
G0 F9000 X127.94 Y245.32
G1 F1500 X129.679 Y247.059 E3136.7803
G0 F9000 X128.265 Y247.059
G1 F1500 X127.94 Y246.734 E3136.87011
G1 F2400 E3127.87011
G1 F300 Z1.5
;MESH:NONMESH
G0 F9000 X273.5 Y248.5 Z1.5
;TIME_ELAPSED:653.580784
;LAYER:1
M140 S84
M106 S42.5
;MESH:FlashingRubberInserterTool.stl
G0 F13500 X273.5 Y248.5 Z2.1
;TYPE:WALL-INNER
G1 F300 Z1.1
G1 F2400 E3136.87011
G1 F1500 X126.5 Y248.5 E3171.33925
G1 X126.5 Y151.5 E3194.08419
G1 X273.5 Y151.5 E3228.55334
G1 X273.5 Y248.5 E3251.29828
G0 F13500 X274.5 Y249.5
;TYPE:WALL-OUTER
G1 F1500 X125.5 Y249.5 E3286.23639
G1 X125.5 Y150.5 E3309.4503
G1 X274.5 Y150.5 E3344.38841
G1 X274.5 Y249.5 E3367.60232
G0 F13500 X274 Y249.5
G0 X273.4 Y248.4
G0 X272.51 Y247.51
;TYPE:SKIN
G1 F1500 X127.49 Y247.51 E3401.60718
G1 X127.49 Y152.49 E3423.88785
G1 X272.51 Y152.49 E3457.89271
G1 X272.51 Y247.51 E3480.17337
G1 F2400 E3471.17337
G1 F300 Z2.1
G0 F13500 X272.059 Y245.542 Z2.1
G1 F300 Z1.1
G1 F2400 E3480.17337
G1 F1500 X270.541 Y247.06 E3480.67676
G0 F13500 X269.127 Y247.06
G1 F1500 X272.059 Y244.128 E3481.64904
G0 F13500 X272.059 Y242.714
G1 F1500 X267.713 Y247.06 E3483.09022
G0 F13500 X266.299 Y247.06
G1 F1500 X272.059 Y241.3 E3485.0003
G0 F13500 X272.059 Y239.885
G1 F1500 X264.885 Y247.06 E3487.37943
G0 F13500 X263.47 Y247.06
G1 F1500 X272.059 Y238.471 E3490.22764
G0 F13500 X272.059 Y237.057
G1 F1500 X262.056 Y247.06 E3493.54473
G0 F13500 X260.642 Y247.06
G1 F1500 X272.059 Y235.643 E3497.33073
G0 F13500 X272.059 Y234.229
G1 F1500 X259.228 Y247.06 E3501.58562
G0 F13500 X257.813 Y247.06
G1 F1500 X272.059 Y232.814 E3506.30974
G0 F13500 X272.059 Y231.4
G1 F1500 X256.399 Y247.06 E3511.50276
G0 F13500 X254.985 Y247.06
G1 F1500 X272.059 Y229.986 E3517.16468
G0 F13500 X272.059 Y228.572
G1 F1500 X253.571 Y247.06 E3523.29549
G0 F13500 X252.157 Y247.06
G1 F1500 X272.059 Y227.158 E3529.8952
G0 F13500 X272.059 Y225.743
