;FLAVOR:Marlin
;TIME:2988
;Filament used: 16.6627m
;Layer height: 0.6
;Generated with Cura_SteamEngine 4.0.0
M140 S84
M105
M190 S84
M104 S245
M105
M109 S245
M82 ;absolute extrusion mode
G28 ;Home
G1 Z15.0 F6000 ;Move the platform down 15mm
;Prime the extruder
G92 E0
G1 F200 E3
G92 E0
G92 E0
G1 F2400 E-9
;LAYER_COUNT:17
;LAYER:0
M107
G0 F9000 X166.873 Y148.368 Z0.5
;TYPE:SKIRT
G1 F2400 E0
G1 F1800 X167.195 Y148.059 E0.0872
G1 X167.567 Y147.812 E0.17446
G1 X167.977 Y147.634 E0.2618
G1 X168.412 Y147.533 E0.34906
G1 X168.759 Y147.509 E0.41703
G1 X274.536 Y147.51 E21.0862
G1 X274.981 Y147.55 E21.17351
G1 X275.412 Y147.668 E21.26082
G1 X275.815 Y147.862 E21.34822
G1 X276.177 Y148.124 E21.43554
G1 X276.486 Y148.446 E21.52274
G1 X276.733 Y148.818 E21.61
G1 X276.911 Y149.228 E21.69734
G1 X277.012 Y149.663 E21.7846
G1 X277.036 Y150.01 E21.85257
G1 X277.036 Y249.991 E41.38918
G1 X276.996 Y250.436 E41.47649
G1 X276.878 Y250.867 E41.56381
G1 X276.684 Y251.27 E41.6512
G1 X276.422 Y251.632 E41.73852
G1 X276.1 Y251.941 E41.82573
G1 X275.728 Y252.188 E41.91298
G1 X275.318 Y252.366 E42.00032
G1 X274.883 Y252.467 E42.08758
G1 X274.536 Y252.491 E42.15555
G1 X168.759 Y252.49 E62.82472
G1 X168.314 Y252.45 E62.91203
G1 X167.883 Y252.332 E62.99935
G1 X167.48 Y252.138 E63.08674
G1 X167.118 Y251.876 E63.17406
G1 X166.809 Y251.554 E63.26127
G1 X166.562 Y251.182 E63.34852
G1 X166.384 Y250.772 E63.43586
G1 X166.283 Y250.337 E63.52312
G1 X166.259 Y249.99 E63.59109
G1 X166.259 Y150.009 E83.12771
G1 X166.299 Y149.564 E83.21501
G1 X166.417 Y149.133 E83.30233
G1 X166.611 Y148.73 E83.38973
G1 X166.873 Y148.368 E83.47704
G0 F9000 X167.605 Y149.05
G1 F1800 X167.855 Y148.812 E83.54449
G1 X168.154 Y148.637 E83.61219
G1 X168.484 Y148.534 E83.67974
G1 X168.759 Y148.509 E83.7337
G1 X274.536 Y148.51 E104.40287
G1 X274.88 Y148.55 E104.47054
G1 X275.205 Y148.667 E104.53804
G1 X275.495 Y148.856 E104.60568
G1 X275.733 Y149.106 E104.67313
G1 X275.908 Y149.405 E104.74082
G1 X276.011 Y149.735 E104.80838
G1 X276.036 Y150.01 E104.86233
G1 X276.036 Y249.991 E124.39895
G1 X275.996 Y250.335 E124.46662
G1 X275.879 Y250.66 E124.53412
G1 X275.69 Y250.95 E124.60176
G1 X275.44 Y251.188 E124.6692
G1 X275.141 Y251.363 E124.7369
G1 X274.811 Y251.466 E124.80445
G1 X274.536 Y251.491 E124.85841
G1 X168.759 Y251.49 E145.52758
G1 X168.415 Y251.45 E145.59526
G1 X168.09 Y251.333 E145.66275
G1 X167.8 Y251.144 E145.73039
G1 X167.562 Y250.894 E145.79784
G1 X167.387 Y250.595 E145.86554
G1 X167.284 Y250.265 E145.93309
G1 X167.259 Y249.99 E145.98704
G1 X167.259 Y150.009 E165.52366
G1 X167.299 Y149.665 E165.59133
G1 X167.416 Y149.34 E165.65883
G1 X167.605 Y149.05 E165.72647
G1 F2400 E156.72647
G1 F300 Z1.5
;MESH:RubberInserterToolSM.stl
G0 F9000 X229.75 Y248.5 Z1.5
;TYPE:WALL-INNER
G1 F300 Z0.5
G1 F2400 E165.72647
G1 F1500 X170.25 Y248.5 E177.35296
G1 X170.25 Y151.5 E196.30708
G1 X229.75 Y151.5 E207.93358
G1 X229.75 Y248.5 E226.8877
G0 F9000 X230.75 Y249.5
;TYPE:WALL-OUTER
G1 F1500 X169.25 Y249.5 E238.905
G1 X169.25 Y150.5 E258.24993
G1 X230.75 Y150.5 E270.26723
G1 X230.75 Y249.5 E289.61216
G0 F9000 X230.25 Y249.5
G0 X229.65 Y248.4
G0 X228.76 Y247.51
;TYPE:SKIN
G1 F1500 X171.24 Y247.51 E300.85175
G1 X171.24 Y152.49 E319.41897
G1 X228.76 Y152.49 E330.65857
G1 X228.76 Y247.51 E349.22579
G1 F2400 E340.22579
G1 F300 Z1.5
G0 F9000 X172.105 Y247.058 Z1.5
G1 F300 Z0.5
G1 F2400 E349.22579
G1 F1500 X171.689 Y246.643 E349.34061
G0 F9000 X171.689 Y245.228
G1 F1500 X173.519 Y247.058 E349.84632
G0 F9000 X174.933 Y247.058
G1 F1500 X171.689 Y243.814 E350.74277
G0 F9000 X171.689 Y242.4
G1 F1500 X176.348 Y247.058 E352.03011
G0 F9000 X177.762 Y247.058
G1 F1500 X171.689 Y240.986 E353.7082
G0 F9000 X171.689 Y239.572
G1 F1500 X179.176 Y247.058 E355.77703
G0 F9000 X180.59 Y247.058
G1 F1500 X171.689 Y238.157 E358.23675
G0 F9000 X171.689 Y236.743
G1 F1500 X182.005 Y247.058 E361.08736
G0 F9000 X183.419 Y247.058
G1 F1500 X171.689 Y235.329 E364.32871
G0 F9000 X171.689 Y233.915
G1 F1500 X184.833 Y247.058 E367.96081
G0 F9000 X186.247 Y247.058
G1 F1500 X171.689 Y232.5 E371.9838
G0 F9000 X171.689 Y231.086
G1 F1500 X187.661 Y247.058 E376.39753
G0 F9000 X189.076 Y247.058
G1 F1500 X171.689 Y229.672 E381.20215
G0 F9000 X171.689 Y228.258
G1 F1500 X190.49 Y247.058 E386.39752
G0 F9000 X191.904 Y247.058
G1 F1500 X171.689 Y226.844 E391.98364
G0 F9000 X171.689 Y225.429
G1 F1500 X193.318 Y247.058 E397.96064
G0 F9000 X194.732 Y247.058
G1 F1500 X171.689 Y224.015 E404.32838
G0 F9000 X171.689 Y222.601
G1 F1500 X196.147 Y247.058 E411.08702
G0 F9000 X197.561 Y247.058
G1 F1500 X171.689 Y221.187 E418.2364
G0 F9000 X171.689 Y219.773
G1 F1500 X198.975 Y247.058 E425.77653
G0 F9000 X200.389 Y247.058
G1 F1500 X171.689 Y218.358 E433.70754
G0 F9000 X171.689 Y216.944
G1 F1500 X201.804 Y247.058 E442.02945
G0 F9000 X203.218 Y247.058
G1 F1500 X171.689 Y215.53 E450.74209
G0 F9000 X171.689 Y214.116
G1 F1500 X204.632 Y247.058 E459.84549
G0 F9000 X206.046 Y247.058
G1 F1500 X171.689 Y212.701 E469.33977
G0 F9000 X171.689 Y211.287
G1 F1500 X207.46 Y247.058 E479.2248
G0 F9000 X208.875 Y247.058
G1 F1500 X171.689 Y209.873 E489.50072
G0 F9000 X171.689 Y208.459
G1 F1500 X210.289 Y247.058 E500.16738
G0 F9000 X211.703 Y247.058
G1 F1500 X171.689 Y207.045 E511.22479
G0 F9000 X171.689 Y205.63
G1 F1500 X213.117 Y247.058 E522.67308
G0 F9000 X214.531 Y247.058
G1 F1500 X171.689 Y204.216 E534.51213
G0 F9000 X171.689 Y202.802
G1 F1500 X215.946 Y247.058 E546.74206
G0 F9000 X217.36 Y247.058
G1 F1500 X171.689 Y201.388 E559.36273
G0 F9000 X171.689 Y199.974
G1 F1500 X218.774 Y247.058 E572.37416
G0 F9000 X220.188 Y247.058
G1 F1500 X171.689 Y198.559 E585.77647
G0 F9000 X171.689 Y197.145
G1 F1500 X221.603 Y247.058 E599.56966
G0 F9000 X223.017 Y247.058
G1 F1500 X171.689 Y195.731 E613.75361
G0 F9000 X171.689 Y194.317
G1 F1500 X224.431 Y247.058 E628.3283
G0 F9000 X225.845 Y247.058
G1 F1500 X171.689 Y192.902 E643.29387
G0 F9000 X171.689 Y191.488
G1 F1500 X227.259 Y247.058 E658.6502
G0 F9000 X228.309 Y246.694
G1 F1500 X171.689 Y190.074 E674.29668
G0 F9000 X171.689 Y188.66
G1 F1500 X228.309 Y245.28 E689.94317
G0 F9000 X228.309 Y243.866
G1 F1500 X171.689 Y187.246 E705.58965
G0 F9000 X171.689 Y185.831
G1 F1500 X228.309 Y242.452 E721.23627
G0 F9000 X228.309 Y241.037
G1 F1500 X171.689 Y184.417 E736.88275
G0 F9000 X171.689 Y183.003
G1 F1500 X228.309 Y239.623 E752.52924
G0 F9000 X228.309 Y238.209
G1 F1500 X171.689 Y181.589 E768.17572
G0 F9000 X171.689 Y180.175
G1 F1500 X228.309 Y236.795 E783.8222
G0 F9000 X228.309 Y235.38
G1 F1500 X171.689 Y178.76 E799.46869
G0 F9000 X171.689 Y177.346
G1 F1500 X228.309 Y233.966 E815.11517
G0 F9000 X228.309 Y232.552
G1 F1500 X171.689 Y175.932 E830.76165
G0 F9000 X171.689 Y174.518
G1 F1500 X228.309 Y231.138 E846.40814
G0 F9000 X228.309 Y229.724
G1 F1500 X171.689 Y173.103 E862.05476
G0 F9000 X171.689 Y171.689
G1 F1500 X228.309 Y228.309 E877.70124
G0 F9000 X228.309 Y226.895
G1 F1500 X171.689 Y170.275 E893.34773
G0 F9000 X171.689 Y168.861
G1 F1500 X228.309 Y225.481 E908.99421
G0 F9000 X228.309 Y224.067
G1 F1500 X171.689 Y167.447 E924.64069
G0 F9000 X171.689 Y166.032
G1 F1500 X228.309 Y222.653 E940.28731
G0 F9000 X228.309 Y221.238
G1 F1500 X171.689 Y164.618 E955.9338
G0 F9000 X171.689 Y163.204
G1 F1500 X228.309 Y219.824 E971.58028
G0 F9000 X228.309 Y218.41
G1 F1500 X171.689 Y161.79 E987.22676
G0 F9000 X171.689 Y160.376
G1 F1500 X228.309 Y216.996 E1002.87325
G0 F9000 X228.309 Y215.582
G1 F1500 X171.689 Y158.961 E1018.51987
G0 F9000 X171.689 Y157.547
G1 F1500 X228.309 Y214.167 E1034.16635
G0 F9000 X228.309 Y212.753
G1 F1500 X171.689 Y156.133 E1049.81284
G0 F9000 X171.689 Y154.719
G1 F1500 X228.309 Y211.339 E1065.45932
G0 F9000 X228.309 Y209.925
G1 F1500 X171.689 Y153.304 E1081.10594
G0 F9000 X172.739 Y152.94
G1 F1500 X228.309 Y208.51 E1096.46226
G0 F9000 X228.309 Y207.096
G1 F1500 X174.153 Y152.94 E1111.42784
G0 F9000 X175.567 Y152.94
G1 F1500 X228.309 Y205.682 E1126.00267
G0 F9000 X228.309 Y204.268
G1 F1500 X176.981 Y152.94 E1140.18675
G0 F9000 X178.395 Y152.94
G1 F1500 X228.309 Y202.854 E1153.98009
G0 F9000 X228.309 Y201.439
G1 F1500 X179.81 Y152.94 E1167.3824
G0 F9000 X181.224 Y152.94
G1 F1500 X228.309 Y200.025 E1180.39396
G0 F9000 X228.309 Y198.611
G1 F1500 X182.638 Y152.94 E1193.01477
G0 F9000 X184.052 Y152.94
G1 F1500 X228.309 Y197.197 E1205.24484
G0 F9000 X228.309 Y195.783
G1 F1500 X185.467 Y152.94 E1217.08402
G0 F9000 X186.881 Y152.94
G1 F1500 X228.309 Y194.368 E1228.53232
G0 F9000 X228.309 Y192.954
G1 F1500 X188.295 Y152.94 E1239.58987
G0 F9000 X189.709 Y152.94
G1 F1500 X228.309 Y191.54 E1250.25667
G0 F9000 X228.309 Y190.126
G1 F1500 X191.123 Y152.94 E1260.53272
G0 F9000 X192.538 Y152.94
G1 F1500 X228.309 Y188.711 E1270.41775
G0 F9000 X228.309 Y187.297
G1 F1500 X193.952 Y152.94 E1279.91203
G0 F9000 X195.366 Y152.94
G1 F1500 X228.309 Y185.883 E1289.01557
G0 F9000 X228.309 Y184.469
G1 F1500 X196.78 Y152.94 E1297.72835
G0 F9000 X198.194 Y152.94
G1 F1500 X228.309 Y183.055 E1306.05039
G0 F9000 X228.309 Y181.64
G1 F1500 X199.609 Y152.94 E1313.98141
G0 F9000 X201.023 Y152.94
G1 F1500 X228.309 Y180.226 E1321.52167
G0 F9000 X228.309 Y178.812
G1 F1500 X202.437 Y152.94 E1328.67119
G0 F9000 X203.851 Y152.94
G1 F1500 X228.309 Y177.398 E1335.42997
G0 F9000 X228.309 Y175.984
G1 F1500 X205.266 Y152.94 E1341.79785
G0 F9000 X206.68 Y152.94
G1 F1500 X228.309 Y174.569 E1347.77485
G0 F9000 X228.309 Y173.155
G1 F1500 X208.094 Y152.94 E1353.36111
G0 F9000 X209.508 Y152.94
G1 F1500 X228.309 Y171.741 E1358.55661
G0 F9000 X228.309 Y170.327
G1 F1500 X210.922 Y152.94 E1363.36137
G0 F9000 X212.337 Y152.94
G1 F1500 X228.309 Y168.912 E1367.7751
G0 F9000 X228.309 Y167.498
G1 F1500 X213.751 Y152.94 E1371.79809
G0 F9000 X215.165 Y152.94
G1 F1500 X228.309 Y166.084 E1375.43033
G0 F9000 X228.309 Y164.67
G1 F1500 X216.579 Y152.94 E1378.67182
G0 F9000 X217.993 Y152.94
G1 F1500 X228.309 Y163.256 E1381.52257
G0 F9000 X228.309 Y161.841
G1 F1500 X219.408 Y152.94 E1383.98229
G0 F9000 X220.822 Y152.94
G1 F1500 X228.309 Y160.427 E1386.05126
G0 F9000 X228.309 Y159.013
G1 F1500 X222.236 Y152.94 E1387.72948
G0 F9000 X223.65 Y152.94
G1 F1500 X228.309 Y157.599 E1389.01696
G0 F9000 X228.309 Y156.185
G1 F1500 X225.065 Y152.94 E1389.91355
G0 F9000 X226.479 Y152.94
G1 F1500 X228.309 Y154.77 E1390.41926
G0 F9000 X228.309 Y153.356
G1 F1500 X227.893 Y152.94 E1390.53422
G1 F2400 E1381.53422
G1 F300 Z1.5
;MESH:Pry-RubberInserterTool.stl
G0 F9000 X273.045 Y248.5 Z1.5
;TYPE:WALL-INNER
G1 F300 Z0.5
G1 F2400 E1390.53422
G1 F1500 X238.545 Y248.5 E1397.27563
G1 X238.545 Y151.5 E1416.22975
G1 X273.045 Y151.5 E1422.97116
G1 X273.045 Y248.5 E1441.92528
G0 F9000 X274.045 Y249.5
;TYPE:WALL-OUTER
G1 F1500 X237.545 Y249.5 E1449.0575
G1 X237.545 Y150.5 E1468.40243
G1 X274.045 Y150.5 E1475.53465
G1 X274.045 Y249.5 E1494.87957
G0 F9000 X273.545 Y249.5
G0 X272.945 Y248.4
G0 X272.055 Y247.51
;TYPE:SKIN
G1 F1500 X239.535 Y247.51 E1501.23409
G1 X239.535 Y152.49 E1519.80131
G1 X272.055 Y152.49 E1526.15583
G1 X272.055 Y247.51 E1544.72305
G1 F2400 E1535.72305
G1 F300 Z1.5
G0 F9000 X241.402 Y247.058 Z1.5
G1 F300 Z0.5
G1 F2400 E1544.72305
G1 F1500 X239.984 Y245.641 E1545.11476
G0 F9000 X239.984 Y244.226
G1 F1500 X242.816 Y247.058 E1545.89736
G0 F9000 X244.23 Y247.058
G1 F1500 X239.984 Y242.812 E1547.07071
G0 F9000 X239.984 Y241.398
G1 F1500 X245.644 Y247.058 E1548.63481
G0 F9000 X247.058 Y247.058
G1 F1500 X239.984 Y239.984 E1550.58965
G0 F9000 X239.984 Y238.57
G1 F1500 X248.473 Y247.058 E1552.93538
G0 F9000 X249.887 Y247.058
G1 F1500 X239.984 Y237.155 E1555.67199
G0 F9000 X239.984 Y235.741
G1 F1500 X251.301 Y247.058 E1558.79935
G0 F9000 X252.715 Y247.058
G1 F1500 X239.984 Y234.327 E1562.31746
G0 F9000 X239.984 Y232.913
G1 F1500 X254.129 Y247.058 E1566.22632
G0 F9000 X255.544 Y247.058
G1 F1500 X239.984 Y231.498 E1570.5262
G0 F9000 X239.984 Y230.084
G1 F1500 X256.959 Y247.059 E1575.21711
G0 F9000 X258.373 Y247.059
G1 F1500 X239.984 Y228.67 E1580.29876
G0 F9000 X239.984 Y227.256
G1 F1500 X259.787 Y247.059 E1585.77116
G0 F9000 X261.201 Y247.059
G1 F1500 X239.984 Y225.842 E1591.63431
G0 F9000 X239.984 Y224.427
G1 F1500 X262.615 Y247.059 E1597.88834
G0 F9000 X264.03 Y247.059
G1 F1500 X239.984 Y223.013 E1604.53326
G0 F9000 X239.984 Y221.599
G1 F1500 X265.444 Y247.059 E1611.56893
G0 F9000 X266.858 Y247.059
G1 F1500 X239.984 Y220.185 E1618.99534
G0 F9000 X239.984 Y218.771
G1 F1500 X268.272 Y247.059 E1626.81251
G0 F9000 X269.686 Y247.059
G1 F1500 X239.984 Y217.356 E1635.02055
G0 F9000 X239.984 Y215.942
G1 F1500 X271.101 Y247.059 E1643.61949
G0 F9000 X271.603 Y246.148
G1 F1500 X239.984 Y214.528 E1652.35728
G0 F9000 X239.984 Y213.114
G1 F1500 X271.603 Y244.733 E1661.09494
G0 F9000 X271.603 Y243.319
G1 F1500 X239.984 Y211.699 E1669.83274
G0 F9000 X239.984 Y210.285
G1 F1500 X271.603 Y241.905 E1678.57053
G0 F9000 X271.603 Y240.491
G1 F1500 X239.984 Y208.871 E1687.30833
G0 F9000 X239.984 Y207.457
G1 F1500 X271.603 Y239.077 E1696.04612
G0 F9000 X271.603 Y237.662
G1 F1500 X239.984 Y206.043 E1704.78378
G0 F9000 X239.984 Y204.628
G1 F1500 X271.603 Y236.248 E1713.52158
G0 F9000 X271.603 Y234.834
G1 F1500 X239.984 Y203.214 E1722.25937
G0 F9000 X239.984 Y201.8
G1 F1500 X271.603 Y233.42 E1730.99717
G0 F9000 X271.603 Y232.005
G1 F1500 X239.984 Y200.386 E1739.73482
G0 F9000 X239.984 Y198.972
G1 F1500 X271.603 Y230.591 E1748.47248
G0 F9000 X271.603 Y229.177
G1 F1500 X239.984 Y197.557 E1757.21028
G0 F9000 X239.984 Y196.143
G1 F1500 X271.603 Y227.763 E1765.94807
G0 F9000 X271.603 Y226.349
G1 F1500 X239.984 Y194.729 E1774.68587
G0 F9000 X239.984 Y193.315
G1 F1500 X271.603 Y224.934 E1783.42352
G0 F9000 X271.603 Y223.52
G1 F1500 X239.984 Y191.901 E1792.16118
G0 F9000 X239.984 Y190.486
G1 F1500 X271.603 Y222.106 E1800.89898
G0 F9000 X271.603 Y220.692
G1 F1500 X239.984 Y189.072 E1809.63677
G0 F9000 X239.984 Y187.658
G1 F1500 X271.603 Y219.278 E1818.37457
G0 F9000 X271.603 Y217.863
G1 F1500 X239.984 Y186.244 E1827.11223
G0 F9000 X239.984 Y184.829
G1 F1500 X271.603 Y216.449 E1835.85002
G0 F9000 X271.603 Y215.035
G1 F1500 X239.984 Y183.415 E1844.58782
G0 F9000 X239.984 Y182.001
G1 F1500 X271.603 Y213.621 E1853.32561
G0 F9000 X271.603 Y212.206
G1 F1500 X239.984 Y180.587 E1862.06327
G0 F9000 X239.984 Y179.173
G1 F1500 X271.603 Y210.792 E1870.80093
G0 F9000 X271.603 Y209.378
G1 F1500 X239.984 Y177.758 E1879.53872
G0 F9000 X239.984 Y176.344
G1 F1500 X271.603 Y207.964 E1888.27652
G0 F9000 X271.603 Y206.55
G1 F1500 X239.984 Y174.93 E1897.01431
G0 F9000 X239.984 Y173.516
G1 F1500 X271.603 Y205.135 E1905.75197
G0 F9000 X271.603 Y203.721
G1 F1500 X239.984 Y172.102 E1914.48963
G0 F9000 X239.984 Y170.687
G1 F1500 X271.603 Y202.307 E1923.22742
G0 F9000 X271.603 Y200.893
G1 F1500 X239.984 Y169.273 E1931.96522
G0 F9000 X239.984 Y167.859
G1 F1500 X271.603 Y199.479 E1940.70301
G0 F9000 X271.603 Y198.064
G1 F1500 X239.984 Y166.445 E1949.44067
G0 F9000 X239.984 Y165.03
G1 F1500 X271.603 Y196.65 E1958.17847
G0 F9000 X271.603 Y195.236
G1 F1500 X239.984 Y163.616 E1966.91626
G0 F9000 X239.984 Y162.202
G1 F1500 X271.603 Y193.822 E1975.65406
G0 F9000 X271.603 Y192.407
G1 F1500 X239.984 Y160.788 E1984.39172
G0 F9000 X239.984 Y159.374
G1 F1500 X271.603 Y190.993 E1993.12937
G0 F9000 X271.603 Y189.579
G1 F1500 X239.984 Y157.959 E2001.86717
G0 F9000 X239.984 Y156.545
G1 F1500 X271.603 Y188.165 E2010.60496
G0 F9000 X271.603 Y186.751
G1 F1500 X239.984 Y155.131 E2019.34276
G0 F9000 X239.984 Y153.717
G1 F1500 X271.603 Y185.336 E2028.08042
G0 F9000 X271.603 Y183.922
G1 F1500 X240.621 Y152.94 E2036.64204
G0 F9000 X242.035 Y152.94
G1 F1500 X271.603 Y182.508 E2044.81292
G0 F9000 X271.603 Y181.094
G1 F1500 X243.449 Y152.94 E2052.59306
G0 F9000 X244.864 Y152.94
G1 F1500 X271.603 Y179.68 E2059.9823
G0 F9000 X271.603 Y178.265
G1 F1500 X246.278 Y152.94 E2066.98066
G0 F9000 X247.692 Y152.94
G1 F1500 X271.603 Y176.851 E2073.58828
G0 F9000 X271.603 Y175.437
G1 F1500 X249.106 Y152.94 E2079.80514
G0 F9000 X250.52 Y152.94
G1 F1500 X271.603 Y174.023 E2085.63126
G0 F9000 X271.603 Y172.609
G1 F1500 X251.935 Y152.94 E2091.06649
G0 F9000 X253.349 Y152.94
G1 F1500 X271.603 Y171.194 E2096.11084
